; HEADER_BLOCK_START
; generated by OrcaSlicer 2.2.0 on 2025-06-04 at 11:42:33
; total layer number: 1
; filament_density: 1.24
; filament_diameter: 1.75
; max_z_height: 0.20
; HEADER_BLOCK_END

; THUMBNAIL_BLOCK_START

;
; THUMBNAIL_BLOCK_END

; THUMBNAIL_BLOCK_START

;
; THUMBNAIL_BLOCK_END

; external perimeters extrusion width = 0.42mm
; perimeters extrusion width = 0.45mm
; infill extrusion width = 0.45mm
; solid infill extrusion width = 0.42mm
; top infill extrusion width = 0.42mm
; first layer extrusion width = 0.50mm

; EXECUTABLE_BLOCK_START
EXCLUDE_OBJECT_DEFINE NAME=Cube_id_0_copy_0 CENTER=87.5,90 POLYGON=[[52.5,55],[122.5,55],[122.5,125],[52.5,125],[52.5,55]]
M73 P0 R8
M106 S0
M106 P2 S0
;TYPE:Custom
PRINT_START
G28
M141 S0
G0 Z50 F600
M190 S60
G28 Z
G29; mesh bed leveling ,comment this code to close it
G0 X0 Y0 Z50 F6000
M73 P52 R4
M191 S0
M109 S210
M106 P3 S255
M83
G4 P3000
G0 X40.9292 Y43.4292 Z5 F6000
M73 P53 R4
G0 Z0.2 F600
M73 P53 R3
G1 E3 F1800
G1 X125.929 E3.4 F3000
M73 P51 R4
G1 Y45.4292 E0.08 F3000
M73 P54 R3
M73 P52 R4
G1 X40.9292 E3.4 F3000
M73 P53 R4
G1 Y128.429 E3.32 F3000
M73 P53 R3
G1 X42.9292 E0.08 F3000
G1 Y46.4292 E3.28 F3000
G1 X52.9292 E-0.4 F3000
M73 P55 R3
M73 P54 R3
G1 E0.4 F3000
M106 P3 S255
G90
G21
M83 ; use relative distances for extrusion
SET_PRESSURE_ADVANCE ADVANCE=0.031; Override pressure advance value
M106 S0
M106 P2 S0
;LAYER_CHANGE
;Z:0.2
;HEIGHT:0.2
;BEFORE_LAYER_CHANGE
;0.2
G92 E0

G1 E-.8 F1800
;TIMELAPSE_TAKE_FRAME

;_SET_FAN_SPEED_CHANGING_LAYER
SET_VELOCITY_LIMIT ACCEL=500 ACCEL_TO_DECEL=250
G1 X47.846 Y50.738 F15000
G1 Z.6
G1 Z.2
M73 P55 R3
G1 E.8 F1800
;TYPE:Skirt
;WIDTH:0.5
G1 F3000
G1 X49.438 Y49.446 E.07635
G1 X52.5 Y48.658 E.11778
G1 X122.5 Y48.658 E2.60723
G1 X124.708 Y49.055 E.08357
G1 X126.64 Y50.195 E.08357
G1 X128.054 Y51.938 E.08357
G1 X128.842 Y55 E.11778
G1 X128.842 Y125 E2.60723
G1 X128.445 Y127.208 E.08357
M73 P56 R3
G1 X127.305 Y129.14 E.08357
G1 X125.562 Y130.554 E.08357
G1 X122.5 Y131.342 E.11778
G1 X52.5 Y131.342 E2.60723
G1 X50.292 Y130.945 E.08357
M73 P56 R3
G1 X48.36 Y129.805 E.08357
G1 X46.946 Y128.062 E.08357
G1 X46.158 Y125 E.11778
G1 X46.158 Y55 E2.60723
G1 X46.555 Y52.792 E.08357
G1 X47.695 Y50.86 E.08357
G1 X47.815 Y50.763 E.00572
G1 X48.148 Y51.039 F15000
G1 F3000
G1 X49.871 Y49.735 E.08047
G1 X52.5 Y49.115 E.10062
G1 X122.5 Y49.115 E2.60723
G1 X124.624 Y49.511 E.08047
M73 P57 R3
G1 X126.461 Y50.648 E.08047
G1 X127.765 Y52.371 E.08047
G1 X128.385 Y55 E.10062
G1 X128.385 Y125 E2.60723
G1 X127.989 Y127.124 E.08047
M73 P57 R3
G1 X126.852 Y128.961 E.08047
G1 X125.129 Y130.265 E.08047
G1 X122.5 Y130.885 E.10062
G1 X52.5 Y130.885 E2.60723
G1 X50.376 Y130.489 E.08047
G1 X48.539 Y129.352 E.08047
G1 X47.235 Y127.629 E.08047
G1 X46.615 Y125 E.10062
G1 X46.615 Y55 E2.60723
G1 X47.011 Y52.876 E.08047
G1 X48.127 Y51.073 E.07898
G1 X48.529 Y51.334 F15000
G1 F3000
M73 P58 R3
G1 X48.599 Y51.225 E.00483
G1 X50.3 Y50.038 E.07726
G1 X52.5 Y49.572 E.08376
G1 X122.5 Y49.572 E2.60723
G1 X124.536 Y49.968 E.07726
M73 P58 R3
G1 X126.275 Y51.099 E.07726
G1 X127.462 Y52.8 E.07726
G1 X127.928 Y55 E.08376
G1 X127.928 Y125 E2.60723
G1 X127.532 Y127.036 E.07726
G1 X126.401 Y128.775 E.07726
G1 X124.7 Y129.962 E.07726
G1 X122.5 Y130.428 E.08376
G1 X52.5 Y130.428 E2.60723
G1 X50.464 Y130.032 E.07726
G1 X48.725 Y128.901 E.07726
G1 X47.538 Y127.2 E.07726
G1 X47.072 Y125 E.08376
G1 X47.072 Y55 E2.60723
G1 X47.468 Y52.964 E.07726
M73 P59 R3
G1 X48.507 Y51.367 E.07094
G1 X48.9 Y51.638 F15000
G1 F3000
G1 X49.05 Y51.421 E.00981
G1 X50.724 Y50.357 E.0739
M73 P59 R3
G1 X52.5 Y50.029 E.06726
G1 X122.5 Y50.029 E2.60723
G1 X124.444 Y50.425 E.0739
G1 X126.079 Y51.55 E.0739
G1 X127.143 Y53.224 E.0739
G1 X127.471 Y55 E.06726
G1 X127.471 Y125 E2.60723
G1 X127.075 Y126.944 E.0739
G1 X125.95 Y128.579 E.0739
G1 X124.276 Y129.643 E.0739
G1 X122.5 Y129.971 E.06726
G1 X52.5 Y129.971 E2.60723
G1 X50.556 Y129.575 E.0739
M73 P60 R3
G1 X48.921 Y128.45 E.0739
G1 X47.857 Y126.776 E.0739
G1 X47.529 Y125 E.06726
G1 X47.529 Y55 E2.60723
G1 X47.925 Y53.056 E.0739
M73 P60 R3
G1 X48.878 Y51.671 E.0626
G1 X49.261 Y51.952 F15000
G1 F3000
G1 X49.499 Y51.628 E.01498
G1 X51.142 Y50.695 E.07039
G1 X52.5 Y50.486 E.05116
G1 X122.5 Y50.486 E2.60723
G1 X124.348 Y50.882 E.07039
G1 X125.872 Y51.999 E.07039
G1 X126.805 Y53.642 E.07039
G1 X127.014 Y55 E.05116
G1 X127.014 Y125 E2.60723
G1 X126.618 Y126.848 E.07039
M73 P61 R3
G1 X125.501 Y128.372 E.07039
G1 X123.858 Y129.305 E.07039
G1 X122.5 Y129.514 E.05116
G1 X52.5 Y129.514 E2.60723
G1 X50.652 Y129.118 E.07039
M73 P61 R3
G1 X49.128 Y128.001 E.07039
G1 X48.195 Y126.358 E.07039
G1 X47.986 Y125 E.05116
G1 X47.986 Y55 E2.60723
G1 X48.382 Y53.152 E.07039
G1 X49.238 Y51.985 E.05392
G1 X49.608 Y52.277 F15000
G1 F3000
G1 X49.946 Y51.848 E.02036
G1 X51.552 Y51.055 E.06669
G1 X52.5 Y50.943 E.03555
G1 X122.5 Y50.943 E2.60723
G1 X124.246 Y51.338 E.06669
M73 P62 R3
G1 X125.652 Y52.446 E.06669
G1 X126.445 Y54.052 E.06669
G1 X126.557 Y55 E.03555
G1 X126.557 Y125 E2.60723
G1 X126.162 Y126.746 E.06669
M73 P62 R3
G1 X125.054 Y128.152 E.06669
G1 X123.448 Y128.945 E.06669
G1 X122.5 Y129.057 E.03555
G1 X52.5 Y129.057 E2.60723
G1 X50.754 Y128.662 E.06669
G1 X49.348 Y127.554 E.06669
G1 X48.555 Y125.948 E.06669
G1 X48.443 Y125 E.03555
G1 X48.443 Y55 E2.60723
G1 X48.838 Y53.254 E.06669
M73 P63 R3
G1 X49.583 Y52.308 E.04484
G1 X49.938 Y52.612 F15000
G1 F3000
G1 X50.392 Y52.082 E.02598
G1 X52.5 Y51.4 E.08254
M73 P63 R3
G1 X122.5 Y51.4 E2.60723
G1 X124.138 Y51.795 E.06277
G1 X125.418 Y52.892 E.06277
G1 X126.1 Y55 E.08254
G1 X126.1 Y125 E2.60723
G1 X125.705 Y126.638 E.06277
G1 X124.608 Y127.918 E.06277
G1 X122.5 Y128.6 E.08254
G1 X52.5 Y128.6 E2.60723
G1 X50.862 Y128.205 E.06277
G1 X49.582 Y127.108 E.06277
G1 X48.9 Y125 E.08254
G1 X48.9 Y55 E2.60723
G1 X49.295 Y53.362 E.06277
M73 P64 R3
G1 X49.911 Y52.642 E.0353
G1 X50.244 Y52.957 F15000
G1 F3000
G1 X50.833 Y52.336 E.03191
G1 X52.5 Y51.857 E.06459
M73 P64 R3
G1 X122.5 Y51.857 E2.60723
G1 X124.023 Y52.251 E.05859
G1 X125.164 Y53.333 E.05859
G1 X125.643 Y55 E.06459
G1 X125.643 Y125 E2.60723
G1 X125.249 Y126.523 E.05859
G1 X124.167 Y127.664 E.05859
G1 X122.5 Y128.143 E.06459
G1 X52.5 Y128.143 E2.60723
G1 X50.977 Y127.749 E.05859
M73 P65 R3
G1 X49.836 Y126.667 E.05859
G1 X49.357 Y125 E.06459
G1 X49.357 Y55 E2.60723
G1 X49.751 Y53.477 E.05859
M73 P65 R2
G1 X50.216 Y52.986 E.02519
M73 P65 R3
G1 X50.519 Y53.312 F15000
G1 F3000
G1 X51.27 Y52.613 E.03821
G1 X52.5 Y52.314 E.04715
M73 P65 R2
G1 X122.5 Y52.314 E2.60723
G1 X123.898 Y52.707 E.05408
G1 X124.887 Y53.77 E.05408
G1 X125.186 Y55 E.04715
G1 X125.186 Y125 E2.60723
G1 X124.793 Y126.398 E.05408
M73 P66 R2
G1 X123.73 Y127.387 E.05408
G1 X122.5 Y127.686 E.04715
G1 X52.5 Y127.686 E2.60723
G1 X51.102 Y127.293 E.05408
G1 X50.113 Y126.23 E.05408
M73 P66 R2
G1 X49.814 Y125 E.04715
G1 X49.814 Y55 E2.60723
G1 X50.207 Y53.602 E.05408
G1 X50.49 Y53.339 E.01439
G1 X50.751 Y53.669 F15000
G1 F3000
G1 X51.698 Y52.921 E.04498
G1 X52.5 Y52.771 E.03037
G1 X122.5 Y52.771 E2.60723
G1 X123.761 Y53.162 E.04917
G1 X124.579 Y54.198 E.04917
M73 P67 R2
G1 X124.729 Y55 E.03037
G1 X124.729 Y125 E2.60723
G1 X124.338 Y126.261 E.04917
G1 X123.302 Y127.079 E.04917
G1 X122.5 Y127.229 E.03037
M73 P67 R2
G1 X52.5 Y127.229 E2.60723
G1 X51.239 Y126.838 E.04917
G1 X50.421 Y125.802 E.04917
G1 X50.271 Y125 E.03037
G1 X50.271 Y55 E2.60723
G1 X50.662 Y53.739 E.04917
G1 X50.719 Y53.694 E.0027
G1 E-.2 F1800
;WIPE_START
G1 F3000
G1 X51.504 Y53.074 E-.6
;WIPE_END
EXCLUDE_OBJECT_START NAME=Cube_id_0_copy_0
G1 X56.865 Y58.507 Z.6 F15000
G1 X121.186 Y123.686 Z.6
G1 Z.2
M73 P68 R2
G1 E.8 F1800
;TYPE:Inner wall
G1 F3000
G1 X53.814 Y123.686 E2.50934
G1 X53.814 Y56.314 E2.50934
G1 X121.186 Y56.314 E2.50934
M73 P68 R2
G1 X121.186 Y123.626 E2.5071
G1 X121.643 Y124.143 F15000
M73 P69 R2
G1 F3000
G1 X53.357 Y124.143 E2.54339
G1 X53.357 Y55.857 E2.54339
G1 X121.643 Y55.857 E2.54339
G1 X121.643 Y124.083 E2.54115
M73 P70 R2
M73 P69 R2
G1 X122.1 Y124.6 F15000
;TYPE:Outer wall
G1 F3000
G1 X52.9 Y124.6 E2.57744
G1 X52.9 Y55.4 E2.57744
G1 X122.1 Y55.4 E2.57744
M73 P70 R2
G1 X122.1 Y124.54 E2.5752
M73 P71 R2
G1 E-.2 F1800
;WIPE_START
G1 F3000
G1 X121.1 Y124.541 E-.6
;WIPE_END
G1 X121.094 Y116.908 Z.6 F15000
G1 X121.049 Y57.379 Z.6
M73 P71 R2
G1 Z.2
G1 E.8 F1800
;TYPE:Bottom surface
;WIDTH:0.501638
G1 F6300
G1 X120.327 Y56.657 E.03815
G1 X119.678 Y56.657 E.02425
G1 X120.843 Y57.822 E.06157
G1 X120.843 Y58.47 E.02425
G1 X119.03 Y56.657 E.09587
G1 X118.381 Y56.657 E.02425
G1 X120.843 Y59.119 E.13016
G1 X120.843 Y59.768 E.02425
G1 X117.732 Y56.657 E.16446
G1 X117.083 Y56.657 E.02425
G1 X120.843 Y60.417 E.19875
G1 X120.843 Y61.065 E.02425
G1 X116.435 Y56.657 E.23304
G1 X115.786 Y56.657 E.02425
G1 X120.843 Y61.714 E.26734
G1 X120.843 Y62.363 E.02425
G1 X115.137 Y56.657 E.30163
G1 X114.488 Y56.657 E.02425
G1 X120.843 Y63.012 E.33592
M73 P72 R2
G1 X120.843 Y63.66 E.02425
G1 X113.84 Y56.657 E.37022
G1 X113.191 Y56.657 E.02425
G1 X120.843 Y64.309 E.40451
G1 X120.843 Y64.958 E.02425
M73 P72 R2
G1 X112.542 Y56.657 E.4388
G1 X111.894 Y56.657 E.02425
G1 X120.843 Y65.606 E.4731
G1 X120.843 Y66.255 E.02425
G1 X111.245 Y56.657 E.50739
G1 X110.596 Y56.657 E.02425
G1 X120.843 Y66.904 E.54168
G1 X120.843 Y67.553 E.02425
G1 X109.947 Y56.657 E.57598
G1 X109.299 Y56.657 E.02425
G1 X120.843 Y68.201 E.61027
G1 X120.843 Y68.85 E.02425
G1 X108.65 Y56.657 E.64456
G1 X108.001 Y56.657 E.02425
G1 X120.843 Y69.499 E.67886
G1 X120.843 Y70.148 E.02425
G1 X107.352 Y56.657 E.71315
G1 X106.704 Y56.657 E.02425
G1 X120.843 Y70.796 E.74744
G1 X120.843 Y71.445 E.02425
G1 X106.055 Y56.657 E.78174
G1 X105.406 Y56.657 E.02425
G1 X120.843 Y72.094 E.81603
G1 X120.843 Y72.742 E.02425
M73 P73 R2
G1 X104.758 Y56.657 E.85033
G1 X104.109 Y56.657 E.02425
G1 X120.843 Y73.391 E.88462
G1 X120.843 Y74.04 E.02425
G1 X103.46 Y56.657 E.91891
M73 P73 R2
G1 X102.811 Y56.657 E.02425
G1 X120.843 Y74.689 E.95321
G1 X120.843 Y75.337 E.02425
G1 X102.163 Y56.657 E.9875
G1 X101.514 Y56.657 E.02425
G1 X120.843 Y75.986 E1.02179
G1 X120.843 Y76.635 E.02425
G1 X100.865 Y56.657 E1.05609
G1 X100.216 Y56.657 E.02425
G1 X120.843 Y77.284 E1.09038
G1 X120.843 Y77.932 E.02425
G1 X99.568 Y56.657 E1.12467
G1 X98.919 Y56.657 E.02425
G1 X120.843 Y78.581 E1.15897
G1 X120.843 Y79.23 E.02425
G1 X98.27 Y56.657 E1.19326
G1 X97.622 Y56.657 E.02425
M73 P74 R2
G1 X120.843 Y79.878 E1.22755
G1 X120.843 Y80.527 E.02425
G1 X96.973 Y56.657 E1.26185
G1 X96.324 Y56.657 E.02425
G1 X120.843 Y81.176 E1.29614
M73 P74 R2
G1 X120.843 Y81.825 E.02425
G1 X95.675 Y56.657 E1.33043
G1 X95.027 Y56.657 E.02425
G1 X120.843 Y82.473 E1.36473
G1 X120.843 Y83.122 E.02425
G1 X94.378 Y56.657 E1.39902
G1 X93.729 Y56.657 E.02425
G1 X120.843 Y83.771 E1.43331
G1 X120.843 Y84.42 E.02425
G1 X93.08 Y56.657 E1.46761
G1 X92.432 Y56.657 E.02425
G1 X120.843 Y85.068 E1.5019
G1 X120.843 Y85.717 E.02425
M73 P75 R2
G1 X91.783 Y56.657 E1.53619
G1 X91.134 Y56.657 E.02425
G1 X120.843 Y86.366 E1.57049
G1 X120.843 Y87.014 E.02425
G1 X90.486 Y56.657 E1.60478
M73 P75 R2
G1 X89.837 Y56.657 E.02425
G1 X120.843 Y87.663 E1.63908
G1 X120.843 Y88.312 E.02425
G1 X89.188 Y56.657 E1.67337
G1 X88.539 Y56.657 E.02425
G1 X120.843 Y88.961 E1.70766
G1 X120.843 Y89.609 E.02425
G1 X87.891 Y56.657 E1.74196
G1 X87.242 Y56.657 E.02425
G1 X120.843 Y90.258 E1.77625
G1 X120.843 Y90.907 E.02425
M73 P76 R2
G1 X86.593 Y56.657 E1.81054
G1 X85.945 Y56.657 E.02425
G1 X120.843 Y91.555 E1.84484
G1 X120.843 Y92.204 E.02425
G1 X85.296 Y56.657 E1.87913
M73 P76 R2
G1 X84.647 Y56.657 E.02425
G1 X120.843 Y92.853 E1.91342
G1 X120.843 Y93.502 E.02425
G1 X83.998 Y56.657 E1.94772
G1 X83.35 Y56.657 E.02425
G1 X120.843 Y94.15 E1.98201
G1 X120.843 Y94.799 E.02425
G1 X82.701 Y56.657 E2.0163
G1 X82.052 Y56.657 E.02425
M73 P76 R1
G1 X120.843 Y95.448 E2.0506
M73 P77 R1
G1 X120.843 Y96.097 E.02425
G1 X81.403 Y56.657 E2.08489
G1 X80.755 Y56.657 E.02425
G1 X120.843 Y96.745 E2.11918
M73 P76 R1
G1 X120.843 Y97.394 E.02425
M73 P77 R1
G1 X80.106 Y56.657 E2.15348
G1 X79.457 Y56.657 E.02425
G1 X120.843 Y98.043 E2.18777
G1 X120.843 Y98.691 E.02425
G1 X78.809 Y56.657 E2.22206
G1 X78.16 Y56.657 E.02425
G1 X120.843 Y99.34 E2.25636
G1 X120.843 Y99.989 E.02425
M73 P78 R1
G1 X77.511 Y56.657 E2.29065
G1 X76.862 Y56.657 E.02425
G1 X120.843 Y100.638 E2.32494
G1 X120.843 Y101.286 E.02425
G1 X76.214 Y56.657 E2.35924
M73 P78 R1
G1 X75.565 Y56.657 E.02425
G1 X120.843 Y101.935 E2.39353
G1 X120.843 Y102.584 E.02425
G1 X74.916 Y56.657 E2.42783
G1 X74.267 Y56.657 E.02425
G1 X120.843 Y103.233 E2.46212
G1 X120.843 Y103.881 E.02425
G1 X73.619 Y56.657 E2.49641
G1 X72.97 Y56.657 E.02425
M73 P79 R1
G1 X120.843 Y104.53 E2.53071
G1 X120.843 Y105.179 E.02425
G1 X72.321 Y56.657 E2.565
G1 X71.673 Y56.657 E.02425
G1 X120.843 Y105.827 E2.59929
M73 P79 R1
G1 X120.843 Y106.476 E.02425
G1 X71.024 Y56.657 E2.63359
G1 X70.375 Y56.657 E.02425
G1 X120.843 Y107.125 E2.66788
G1 X120.843 Y107.774 E.02425
M73 P80 R1
G1 X69.726 Y56.657 E2.70217
G1 X69.078 Y56.657 E.02425
G1 X120.843 Y108.422 E2.73647
G1 X120.843 Y109.071 E.02425
G1 X68.429 Y56.657 E2.77076
M73 P80 R1
G1 X67.78 Y56.657 E.02425
G1 X120.843 Y109.72 E2.80505
G1 X120.843 Y110.369 E.02425
G1 X67.131 Y56.657 E2.83935
G1 X66.483 Y56.657 E.02425
G1 X120.843 Y111.017 E2.87364
G1 X120.843 Y111.666 E.02425
M73 P81 R1
G1 X65.834 Y56.657 E2.90793
G1 X65.185 Y56.657 E.02425
G1 X120.843 Y112.315 E2.94223
G1 X120.843 Y112.963 E.02425
G1 X64.537 Y56.657 E2.97652
M73 P81 R1
G1 X63.888 Y56.657 E.02425
G1 X120.843 Y113.612 E3.01081
G1 X120.843 Y114.261 E.02425
G1 X63.239 Y56.657 E3.04511
G1 X62.59 Y56.657 E.02425
M73 P82 R1
G1 X120.843 Y114.91 E3.0794
G1 X120.843 Y115.558 E.02425
G1 X61.942 Y56.657 E3.1137
G1 X61.293 Y56.657 E.02425
G1 X120.843 Y116.207 E3.14799
M73 P82 R1
G1 X120.843 Y116.856 E.02425
G1 X60.644 Y56.657 E3.18228
G1 X59.996 Y56.657 E.02425
G1 X120.843 Y117.504 E3.21658
G1 X120.843 Y118.153 E.02425
M73 P83 R1
G1 X59.347 Y56.657 E3.25087
G1 X58.698 Y56.657 E.02425
G1 X120.843 Y118.802 E3.28516
G1 X120.843 Y119.451 E.02425
G1 X58.049 Y56.657 E3.31946
M73 P83 R1
G1 X57.401 Y56.657 E.02425
G1 X120.843 Y120.099 E3.35375
G1 X120.843 Y120.748 E.02425
G1 X56.752 Y56.657 E3.38804
G1 X56.103 Y56.657 E.02425
M73 P84 R1
G1 X120.843 Y121.397 E3.42234
G1 X120.843 Y122.046 E.02425
G1 X55.454 Y56.657 E3.45663
G1 X54.806 Y56.657 E.02425
G1 X120.843 Y122.694 E3.49092
M73 P84 R1
G1 X120.843 Y123.343 E.02425
G1 X54.157 Y56.657 E3.52522
G1 X54.157 Y57.306 E.02425
G1 X120.194 Y123.343 E3.49093
G1 X119.546 Y123.343 E.02425
M73 P85 R1
G1 X54.157 Y57.954 E3.45663
G1 X54.157 Y58.603 E.02425
G1 X118.897 Y123.343 E3.42234
G1 X118.248 Y123.343 E.02425
G1 X54.157 Y59.252 E3.38805
M73 P85 R1
G1 X54.157 Y59.901 E.02425
G1 X117.599 Y123.343 E3.35375
G1 X116.951 Y123.343 E.02425
G1 X54.157 Y60.549 E3.31946
G1 X54.157 Y61.198 E.02425
M73 P86 R1
G1 X116.302 Y123.343 E3.28516
G1 X115.653 Y123.343 E.02425
G1 X54.157 Y61.847 E3.25087
G1 X54.157 Y62.495 E.02425
G1 X115.005 Y123.343 E3.21658
M73 P86 R1
G1 X114.356 Y123.343 E.02425
G1 X54.157 Y63.144 E3.18228
G1 X54.157 Y63.793 E.02425
G1 X113.707 Y123.343 E3.14799
G1 X113.058 Y123.343 E.02425
M73 P87 R1
G1 X54.157 Y64.442 E3.1137
G1 X54.157 Y65.09 E.02425
G1 X112.41 Y123.343 E3.0794
G1 X111.761 Y123.343 E.02425
G1 X54.157 Y65.739 E3.04511
M73 P87 R1
G1 X54.157 Y66.388 E.02425
G1 X111.112 Y123.343 E3.01082
G1 X110.463 Y123.343 E.02425
G1 X54.157 Y67.037 E2.97652
G1 X54.157 Y67.685 E.02425
M73 P88 R1
G1 X109.815 Y123.343 E2.94223
G1 X109.166 Y123.343 E.02425
G1 X54.157 Y68.334 E2.90794
G1 X54.157 Y68.983 E.02425
G1 X108.517 Y123.343 E2.87364
M73 P88 R1
G1 X107.869 Y123.343 E.02425
M73 P88 R0
G1 X54.157 Y69.631 E2.83935
G1 X54.157 Y70.28 E.02425
G1 X107.22 Y123.343 E2.80506
G1 X106.571 Y123.343 E.02425
M73 P89 R0
G1 X54.157 Y70.929 E2.77076
M73 P88 R0
G1 X54.157 Y71.578 E.02425
G1 X105.922 Y123.343 E2.73647
G1 X105.274 Y123.343 E.02425
G1 X54.157 Y72.226 E2.70218
M73 P89 R0
G1 X54.157 Y72.875 E.02425
G1 X104.625 Y123.343 E2.66788
G1 X103.976 Y123.343 E.02425
G1 X54.157 Y73.524 E2.63359
