; HEADER_BLOCK_START
; generated by OrcaSlicer 2.2.0 on 2025-06-04 at 11:44:41
; total layer number: 1
; filament_density: 1.24
; filament_diameter: 1.75
; max_z_height: 0.20
; HEADER_BLOCK_END

; THUMBNAIL_BLOCK_START

;
; THUMBNAIL_BLOCK_END

; THUMBNAIL_BLOCK_START

;
; THUMBNAIL_BLOCK_END

; external perimeters extrusion width = 0.42mm
; perimeters extrusion width = 0.45mm
; infill extrusion width = 0.45mm
; solid infill extrusion width = 0.42mm
; top infill extrusion width = 0.42mm
; first layer extrusion width = 0.50mm

; EXECUTABLE_BLOCK_START
EXCLUDE_OBJECT_DEFINE NAME=Cube_id_0_copy_0 CENTER=152.5,152.5 POLYGON=[[117.5,117.5],[187.5,117.5],[187.5,187.5],[117.5,187.5],[117.5,117.5]]
M73 P0 R4
M106 S0
M106 P2 S0
;TYPE:Custom
PRINT_START BED=60 HOTEND=210 CHAMBER=0
SET_PRINT_STATS_INFO TOTAL_LAYER=1
M83
M140 S60
M104 S210
M141 S0
G4 P3000
G0 X105.929 Y105.929 Z5 F6000
G0 Z0.2 F600
G1 E3 F1800
G1 X190.929 E3.4 F3000
G1 Y107.929 E0.08 F3000
M73 P1 R4
G1 X105.929 E3.4 F3000
M73 P1 R4
G1 Y190.929 E3.32 F3000
M73 P2 R3
G1 X107.929 E0.08 F3000
M73 P2 R3
G1 Y108.929 E3.28 F3000
G1 X108.929 Z0
M73 P3 R3
G1 X111.929
M73 P3 R3
G1 Z1 F600
SET_PRINT_STATS_INFO CURRENT_LAYER=1
M106 P3 S255
G90
G21
M83 ; use relative distances for extrusion
SET_PRESSURE_ADVANCE ADVANCE=0.034; Override pressure advance value
M106 S0
M106 P2 S0
;LAYER_CHANGE
;Z:0.2
;HEIGHT:0.2
;BEFORE_LAYER_CHANGE
;0.2
G92 E0

G1 E-.8 F1800
;TIMELAPSE_TAKE_FRAME

G92 E0
SET_PRINT_STATS_INFO CURRENT_LAYER=1
;_SET_FAN_SPEED_CHANGING_LAYER
SET_VELOCITY_LIMIT ACCEL=500 ACCEL_TO_DECEL=250
G1 X112.846 Y113.238 F15000
G1 Z.6
G1 Z.2
G1 E.8 F1800
;TYPE:Skirt
;WIDTH:0.5
G1 F3000
G1 X114.438 Y111.946 E.07635
G1 X117.5 Y111.158 E.11778
G1 X187.5 Y111.158 E2.60723
G1 X189.708 Y111.555 E.08357
M73 P4 R3
G1 X191.64 Y112.695 E.08357
M73 P4 R3
G1 X193.054 Y114.438 E.08357
G1 X193.842 Y117.5 E.11778
G1 X193.842 Y187.5 E2.60723
G1 X193.445 Y189.708 E.08357
M73 P5 R3
G1 X192.305 Y191.64 E.08357
M73 P5 R3
G1 X190.562 Y193.054 E.08357
G1 X187.5 Y193.842 E.11778
G1 X117.5 Y193.842 E2.60723
G1 X115.292 Y193.445 E.08357
G1 X113.36 Y192.305 E.08357
G1 X111.946 Y190.562 E.08357
G1 X111.158 Y187.5 E.11778
G1 X111.158 Y117.5 E2.60723
G1 X111.555 Y115.292 E.08357
M73 P6 R3
G1 X112.695 Y113.36 E.08357
M73 P6 R3
G1 X112.815 Y113.263 E.00572
G1 X113.148 Y113.539 F15000
G1 F3000
G1 X114.871 Y112.235 E.08047
G1 X117.5 Y111.615 E.10062
G1 X187.5 Y111.615 E2.60723
G1 X189.624 Y112.011 E.08047
M73 P7 R3
G1 X191.461 Y113.148 E.08047
M73 P7 R3
G1 X192.765 Y114.871 E.08047
G1 X193.385 Y117.5 E.10062
G1 X193.385 Y187.5 E2.60723
G1 X192.989 Y189.624 E.08047
G1 X191.852 Y191.461 E.08047
G1 X190.129 Y192.765 E.08047
G1 X187.5 Y193.385 E.10062
M73 P8 R3
G1 X117.5 Y193.385 E2.60723
M73 P8 R3
G1 X115.376 Y192.989 E.08047
G1 X113.539 Y191.852 E.08047
G1 X112.235 Y190.129 E.08047
G1 X111.615 Y187.5 E.10062
G1 X111.615 Y117.5 E2.60723
G1 X112.011 Y115.376 E.08047
M73 P9 R3
G1 X113.127 Y113.573 E.07898
M73 P9 R3
G1 X113.529 Y113.834 F15000
G1 F3000
G1 X113.599 Y113.725 E.00483
G1 X115.3 Y112.538 E.07726
G1 X117.5 Y112.072 E.08376
G1 X187.5 Y112.072 E2.60723
G1 X189.536 Y112.468 E.07726
G1 X191.275 Y113.599 E.07726
M73 P10 R3
G1 X192.462 Y115.3 E.07726
M73 P10 R3
G1 X192.928 Y117.5 E.08376
G1 X192.928 Y187.5 E2.60723
G1 X192.532 Y189.536 E.07726
G1 X191.401 Y191.275 E.07726
G1 X189.7 Y192.462 E.07726
G1 X187.5 Y192.928 E.08376
G1 X117.5 Y192.928 E2.60723
G1 X115.464 Y192.532 E.07726
M73 P11 R3
G1 X113.725 Y191.401 E.07726
M73 P11 R3
G1 X112.538 Y189.7 E.07726
G1 X112.072 Y187.5 E.08376
G1 X112.072 Y117.5 E2.60723
G1 X112.468 Y115.464 E.07726
G1 X113.507 Y113.867 E.07094
M73 P12 R3
G1 X113.9 Y114.138 F15000
M73 P12 R3
G1 F3000
G1 X114.05 Y113.921 E.00981
G1 X115.724 Y112.857 E.0739
G1 X117.5 Y112.529 E.06726
G1 X187.5 Y112.529 E2.60723
G1 X189.444 Y112.925 E.0739
G1 X191.079 Y114.05 E.0739
G1 X192.143 Y115.724 E.0739
G1 X192.471 Y117.5 E.06726
G1 X192.471 Y187.5 E2.60723
G1 X192.075 Y189.444 E.0739
M73 P13 R3
G1 X190.95 Y191.079 E.0739
M73 P13 R3
G1 X189.276 Y192.143 E.0739
G1 X187.5 Y192.471 E.06726
G1 X117.5 Y192.471 E2.60723
G1 X115.556 Y192.075 E.0739
M73 P14 R3
G1 X113.921 Y190.95 E.0739
M73 P14 R3
G1 X112.857 Y189.276 E.0739
G1 X112.529 Y187.5 E.06726
G1 X112.529 Y117.5 E2.60723
G1 X112.925 Y115.556 E.0739
G1 X113.878 Y114.171 E.0626
G1 X114.261 Y114.452 F15000
G1 F3000
G1 X114.499 Y114.128 E.01498
G1 X116.142 Y113.195 E.07039
G1 X117.5 Y112.986 E.05116
G1 X187.5 Y112.986 E2.60723
G1 X189.348 Y113.382 E.07039
M73 P15 R3
G1 X190.872 Y114.499 E.07039
M73 P15 R3
G1 X191.805 Y116.142 E.07039
G1 X192.014 Y117.5 E.05116
G1 X192.014 Y187.5 E2.60723
G1 X191.618 Y189.348 E.07039
M73 P16 R3
G1 X190.501 Y190.872 E.07039
M73 P16 R3
G1 X188.858 Y191.805 E.07039
G1 X187.5 Y192.014 E.05116
G1 X117.5 Y192.014 E2.60723
G1 X115.652 Y191.618 E.07039
G1 X114.128 Y190.501 E.07039
G1 X113.195 Y188.858 E.07039
G1 X112.986 Y187.5 E.05116
G1 X112.986 Y117.5 E2.60723
G1 X113.382 Y115.652 E.07039
M73 P17 R3
G1 X114.238 Y114.485 E.05392
M73 P17 R3
G1 X114.608 Y114.777 F15000
G1 F3000
G1 X114.946 Y114.348 E.02036
G1 X116.552 Y113.555 E.06669
G1 X117.5 Y113.443 E.03555
G1 X187.5 Y113.443 E2.60723
G1 X189.246 Y113.838 E.06669
M73 P18 R3
G1 X190.652 Y114.946 E.06669
M73 P18 R3
G1 X191.445 Y116.552 E.06669
G1 X191.557 Y117.5 E.03555
G1 X191.557 Y187.5 E2.60723
G1 X191.162 Y189.246 E.06669
G1 X190.054 Y190.652 E.06669
G1 X188.448 Y191.445 E.06669
G1 X187.5 Y191.557 E.03555
G1 X117.5 Y191.557 E2.60723
G1 X115.754 Y191.162 E.06669
M73 P19 R3
G1 X114.348 Y190.054 E.06669
M73 P19 R3
G1 X113.555 Y188.448 E.06669
G1 X113.443 Y187.5 E.03555
G1 X113.443 Y117.5 E2.60723
G1 X113.838 Y115.754 E.06669
G1 X114.583 Y114.808 E.04484
M73 P20 R3
G1 X114.938 Y115.112 F15000
M73 P20 R3
G1 F3000
G1 X115.392 Y114.582 E.02598
G1 X117.5 Y113.9 E.08254
G1 X187.5 Y113.9 E2.60723
G1 X189.138 Y114.295 E.06277
G1 X190.418 Y115.392 E.06277
G1 X191.1 Y117.5 E.08254
G1 X191.1 Y187.5 E2.60723
G1 X190.705 Y189.138 E.06277
M73 P21 R3
G1 X189.608 Y190.418 E.06277
M73 P21 R3
G1 X187.5 Y191.1 E.08254
G1 X117.5 Y191.1 E2.60723
G1 X115.862 Y190.705 E.06277
G1 X114.582 Y189.608 E.06277
G1 X113.9 Y187.5 E.08254
M73 P22 R3
G1 X113.9 Y117.5 E2.60723
M73 P22 R3
G1 X114.295 Y115.862 E.06277
G1 X114.911 Y115.142 E.0353
G1 X115.244 Y115.457 F15000
G1 F3000
G1 X115.833 Y114.836 E.03191
G1 X117.5 Y114.357 E.06459
G1 X187.5 Y114.357 E2.60723
G1 X189.023 Y114.751 E.05859
M73 P23 R3
G1 X190.164 Y115.833 E.05859
M73 P23 R3
G1 X190.643 Y117.5 E.06459
G1 X190.643 Y187.5 E2.60723
G1 X190.249 Y189.023 E.05859
G1 X189.167 Y190.164 E.05859
G1 X187.5 Y190.643 E.06459
G1 X117.5 Y190.643 E2.60723
M73 P24 R3
G1 X115.977 Y190.249 E.05859
M73 P24 R3
G1 X114.836 Y189.167 E.05859
G1 X114.357 Y187.5 E.06459
G1 X114.357 Y117.5 E2.60723
G1 X114.751 Y115.977 E.05859
M73 P25 R3
G1 X115.216 Y115.486 E.02519
M73 P25 R3
G1 X115.519 Y115.812 F15000
G1 F3000
G1 X116.27 Y115.113 E.03821
G1 X117.5 Y114.814 E.04715
G1 X187.5 Y114.814 E2.60723
G1 X188.898 Y115.207 E.05408
G1 X189.887 Y116.27 E.05408
G1 X190.186 Y117.5 E.04715
G1 X190.186 Y187.5 E2.60723
G1 X189.793 Y188.898 E.05408
M73 P26 R2
G1 X188.73 Y189.887 E.05408
M73 P26 R2
G1 X187.5 Y190.186 E.04715
G1 X117.5 Y190.186 E2.60723
G1 X116.102 Y189.793 E.05408
M73 P27 R2
G1 X115.113 Y188.73 E.05408
M73 P27 R2
G1 X114.814 Y187.5 E.04715
G1 X114.814 Y117.5 E2.60723
G1 X115.207 Y116.102 E.05408
G1 X115.49 Y115.839 E.01439
G1 X115.751 Y116.169 F15000
G1 F3000
G1 X116.698 Y115.421 E.04498
G1 X117.5 Y115.271 E.03037
G1 X187.5 Y115.271 E2.60723
G1 X188.761 Y115.662 E.04917
M73 P28 R2
G1 X189.579 Y116.698 E.04917
M73 P28 R2
G1 X189.729 Y117.5 E.03037
G1 X189.729 Y187.5 E2.60723
G1 X189.338 Y188.761 E.04917
M73 P29 R2
G1 X188.302 Y189.579 E.04917
M73 P29 R2
G1 X187.5 Y189.729 E.03037
G1 X117.5 Y189.729 E2.60723
G1 X116.239 Y189.338 E.04917
G1 X115.421 Y188.302 E.04917
G1 X115.271 Y187.5 E.03037
G1 X115.271 Y117.5 E2.60723
G1 X115.662 Y116.239 E.04917
M73 P30 R2
G1 X115.719 Y116.194 E.0027
;WIPE_START
M73 P30 R2
G1 X116.698 Y115.421 E-.49904
G1 X117.438 Y115.283 E-.30096
;WIPE_END
EXCLUDE_OBJECT_START NAME=Cube_id_0_copy_0
G1 X122.751 Y120.763 Z.6 F15000
G1 X186.186 Y186.186 Z.6
G1 Z.2
G1 E.8 F1800
;TYPE:Inner wall
G1 F3000
G1 X118.814 Y186.186 E2.50934
G1 X118.814 Y118.814 E2.50934
M73 P31 R2
G1 X186.186 Y118.814 E2.50934
M73 P32 R2
M73 P31 R2
G1 X186.186 Y186.126 E2.5071
M73 P32 R2
G1 X186.643 Y186.643 F15000
M73 P33 R2
G1 F3000
M73 P33 R2
G1 X118.357 Y186.643 E2.54339
G1 X118.357 Y118.357 E2.54339
G1 X186.643 Y118.357 E2.54339
M73 P34 R2
G1 X186.643 Y186.583 E2.54115
M73 P34 R2
G1 X187.1 Y187.1 F15000
M73 P35 R2
;TYPE:Outer wall
G1 F3000
M73 P35 R2
G1 X117.9 Y187.1 E2.57744
G1 X117.9 Y117.9 E2.57744
M73 P36 R2
G1 X187.1 Y117.9 E2.57744
M73 P36 R2
G1 X187.1 Y187.04 E2.5752
M73 P37 R2
;WIPE_START
G1 X185.1 Y187.042 E-.8
;WIPE_END
M73 P37 R2
G1 X185.208 Y179.41 Z.6 F15000
G1 X186.049 Y119.879 Z.6
M73 P38 R2
G1 Z.2
M73 P38 R2
G1 E.8 F1800
;TYPE:Bottom surface
;WIDTH:0.501638
G1 F6300
G1 X185.327 Y119.157 E.03815
G1 X184.678 Y119.157 E.02425
G1 X185.843 Y120.322 E.06157
G1 X185.843 Y120.97 E.02425
G1 X184.03 Y119.157 E.09587
G1 X183.381 Y119.157 E.02425
G1 X185.843 Y121.619 E.13016
G1 X185.843 Y122.268 E.02425
G1 X182.732 Y119.157 E.16446
G1 X182.083 Y119.157 E.02425
G1 X185.843 Y122.917 E.19875
G1 X185.843 Y123.565 E.02425
G1 X181.435 Y119.157 E.23304
G1 X180.786 Y119.157 E.02425
G1 X185.843 Y124.214 E.26734
G1 X185.843 Y124.863 E.02425
G1 X180.137 Y119.157 E.30163
G1 X179.488 Y119.157 E.02425
G1 X185.843 Y125.512 E.33592
M73 P39 R2
G1 X185.843 Y126.16 E.02425
M73 P39 R2
G1 X178.84 Y119.157 E.37022
G1 X178.191 Y119.157 E.02425
G1 X185.843 Y126.809 E.40451
G1 X185.843 Y127.458 E.02425
G1 X177.542 Y119.157 E.4388
G1 X176.894 Y119.157 E.02425
G1 X185.843 Y128.106 E.4731
G1 X185.843 Y128.755 E.02425
G1 X176.245 Y119.157 E.50739
G1 X175.596 Y119.157 E.02425
G1 X185.843 Y129.404 E.54168
G1 X185.843 Y130.053 E.02425
G1 X174.947 Y119.157 E.57598
G1 X174.299 Y119.157 E.02425
M73 P40 R2
G1 X185.843 Y130.701 E.61027
M73 P40 R2
G1 X185.843 Y131.35 E.02425
G1 X173.65 Y119.157 E.64456
G1 X173.001 Y119.157 E.02425
G1 X185.843 Y131.999 E.67886
G1 X185.843 Y132.648 E.02425
G1 X172.352 Y119.157 E.71315
G1 X171.704 Y119.157 E.02425
G1 X185.843 Y133.296 E.74744
G1 X185.843 Y133.945 E.02425
G1 X171.055 Y119.157 E.78174
G1 X170.406 Y119.157 E.02425
G1 X185.843 Y134.594 E.81603
G1 X185.843 Y135.242 E.02425
M73 P41 R2
G1 X169.758 Y119.157 E.85033
M73 P41 R2
G1 X169.109 Y119.157 E.02425
G1 X185.843 Y135.891 E.88462
G1 X185.843 Y136.54 E.02425
G1 X168.46 Y119.157 E.91891
G1 X167.811 Y119.157 E.02425
G1 X185.843 Y137.189 E.95321
G1 X185.843 Y137.837 E.02425
G1 X167.163 Y119.157 E.9875
G1 X166.514 Y119.157 E.02425
M73 P42 R2
G1 X185.843 Y138.486 E1.02179
M73 P42 R2
G1 X185.843 Y139.135 E.02425
G1 X165.865 Y119.157 E1.05609
G1 X165.216 Y119.157 E.02425
G1 X185.843 Y139.784 E1.09038
G1 X185.843 Y140.432 E.02425
G1 X164.568 Y119.157 E1.12467
G1 X163.919 Y119.157 E.02425
G1 X185.843 Y141.081 E1.15897
G1 X185.843 Y141.73 E.02425
M73 P43 R2
G1 X163.27 Y119.157 E1.19326
M73 P43 R2
G1 X162.622 Y119.157 E.02425
G1 X185.843 Y142.378 E1.22755
G1 X185.843 Y143.027 E.02425
G1 X161.973 Y119.157 E1.26185
G1 X161.324 Y119.157 E.02425
G1 X185.843 Y143.676 E1.29614
G1 X185.843 Y144.325 E.02425
G1 X160.675 Y119.157 E1.33043
G1 X160.027 Y119.157 E.02425
M73 P44 R2
G1 X185.843 Y144.973 E1.36473
M73 P44 R2
G1 X185.843 Y145.622 E.02425
G1 X159.378 Y119.157 E1.39902
G1 X158.729 Y119.157 E.02425
G1 X185.843 Y146.271 E1.43331
G1 X185.843 Y146.92 E.02425
G1 X158.08 Y119.157 E1.46761
G1 X157.432 Y119.157 E.02425
M73 P45 R2
G1 X185.843 Y147.568 E1.5019
M73 P45 R2
G1 X185.843 Y148.217 E.02425
G1 X156.783 Y119.157 E1.53619
G1 X156.134 Y119.157 E.02425
G1 X185.843 Y148.866 E1.57049
G1 X185.843 Y149.514 E.02425
G1 X155.486 Y119.157 E1.60478
G1 X154.837 Y119.157 E.02425
M73 P46 R2
G1 X185.843 Y150.163 E1.63908
M73 P46 R2
G1 X185.843 Y150.812 E.02425
G1 X154.188 Y119.157 E1.67337
G1 X153.539 Y119.157 E.02425
G1 X185.843 Y151.461 E1.70766
G1 X185.843 Y152.109 E.02425
G1 X152.891 Y119.157 E1.74196
G1 X152.242 Y119.157 E.02425
M73 P47 R2
G1 X185.843 Y152.758 E1.77625
M73 P47 R2
G1 X185.843 Y153.407 E.02425
G1 X151.593 Y119.157 E1.81054
G1 X150.945 Y119.157 E.02425
G1 X185.843 Y154.055 E1.84484
G1 X185.843 Y154.704 E.02425
G1 X150.296 Y119.157 E1.87913
G1 X149.647 Y119.157 E.02425
M73 P48 R2
G1 X185.843 Y155.353 E1.91342
M73 P48 R2
G1 X185.843 Y156.002 E.02425
G1 X148.998 Y119.157 E1.94772
G1 X148.35 Y119.157 E.02425
G1 X185.843 Y156.65 E1.98201
G1 X185.843 Y157.299 E.02425
M73 P49 R2
G1 X147.701 Y119.157 E2.0163
M73 P49 R2
G1 X147.052 Y119.157 E.02425
G1 X185.843 Y157.948 E2.0506
G1 X185.843 Y158.597 E.02425
G1 X146.403 Y119.157 E2.08489
G1 X145.755 Y119.157 E.02425
G1 X185.843 Y159.245 E2.11918
G1 X185.843 Y159.894 E.02425
M73 P50 R2
G1 X145.106 Y119.157 E2.15348
M73 P50 R2
G1 X144.457 Y119.157 E.02425
G1 X185.843 Y160.543 E2.18777
G1 X185.843 Y161.191 E.02425
G1 X143.809 Y119.157 E2.22206
G1 X143.16 Y119.157 E.02425
M73 P51 R1
G1 X185.843 Y161.84 E2.25636
M73 P51 R1
G1 X185.843 Y162.489 E.02425
G1 X142.511 Y119.157 E2.29065
G1 X141.862 Y119.157 E.02425
G1 X185.843 Y163.138 E2.32494
G1 X185.843 Y163.786 E.02425
M73 P52 R1
G1 X141.214 Y119.157 E2.35924
M73 P52 R1
G1 X140.565 Y119.157 E.02425
G1 X185.843 Y164.435 E2.39353
G1 X185.843 Y165.084 E.02425
G1 X139.916 Y119.157 E2.42783
G1 X139.267 Y119.157 E.02425
M73 P53 R1
G1 X185.843 Y165.733 E2.46212
M73 P53 R1
G1 X185.843 Y166.381 E.02425
G1 X138.619 Y119.157 E2.49641
G1 X137.97 Y119.157 E.02425
G1 X185.843 Y167.03 E2.53071
G1 X185.843 Y167.679 E.02425
M73 P54 R1
G1 X137.321 Y119.157 E2.565
M73 P54 R1
G1 X136.673 Y119.157 E.02425
G1 X185.843 Y168.327 E2.59929
G1 X185.843 Y168.976 E.02425
G1 X136.024 Y119.157 E2.63359
G1 X135.375 Y119.157 E.02425
M73 P55 R1
G1 X185.843 Y169.625 E2.66788
M73 P55 R1
G1 X185.843 Y170.274 E.02425
G1 X134.726 Y119.157 E2.70217
G1 X134.078 Y119.157 E.02425
M73 P56 R1
G1 X185.843 Y170.922 E2.73647
M73 P56 R1
G1 X185.843 Y171.571 E.02425
G1 X133.429 Y119.157 E2.77076
G1 X132.78 Y119.157 E.02425
G1 X185.843 Y172.22 E2.80505
G1 X185.843 Y172.869 E.02425
M73 P57 R1
G1 X132.131 Y119.157 E2.83935
M73 P57 R1
G1 X131.483 Y119.157 E.02425
G1 X185.843 Y173.517 E2.87364
G1 X185.843 Y174.166 E.02425
G1 X130.834 Y119.157 E2.90793
G1 X130.185 Y119.157 E.02425
M73 P58 R1
G1 X185.843 Y174.815 E2.94223
M73 P58 R1
G1 X185.843 Y175.463 E.02425
G1 X129.537 Y119.157 E2.97652
G1 X128.888 Y119.157 E.02425
M73 P59 R1
G1 X185.843 Y176.112 E3.01081
M73 P59 R1
G1 X185.843 Y176.761 E.02425
G1 X128.239 Y119.157 E3.04511
G1 X127.59 Y119.157 E.02425
G1 X185.843 Y177.41 E3.0794
G1 X185.843 Y178.058 E.02425
M73 P60 R1
G1 X126.942 Y119.157 E3.1137
M73 P60 R1
G1 X126.293 Y119.157 E.02425
G1 X185.843 Y178.707 E3.14799
G1 X185.843 Y179.356 E.02425
M73 P61 R1
G1 X125.644 Y119.157 E3.18228
M73 P61 R1
G1 X124.996 Y119.157 E.02425
G1 X185.843 Y180.004 E3.21658
G1 X185.843 Y180.653 E.02425
G1 X124.347 Y119.157 E3.25087
M73 P62 R1
G1 X123.698 Y119.157 E.02425
M73 P62 R1
G1 X185.843 Y181.302 E3.28516
G1 X185.843 Y181.951 E.02425
G1 X123.049 Y119.157 E3.31946
G1 X122.401 Y119.157 E.02425
M73 P63 R1
G1 X185.843 Y182.599 E3.35375
M73 P63 R1
G1 X185.843 Y183.248 E.02425
G1 X121.752 Y119.157 E3.38804
G1 X121.103 Y119.157 E.02425
M73 P64 R1
G1 X185.843 Y183.897 E3.42234
M73 P64 R1
G1 X185.843 Y184.546 E.02425
G1 X120.454 Y119.157 E3.45663
G1 X119.806 Y119.157 E.02425
M73 P65 R1
G1 X185.843 Y185.194 E3.49092
M73 P65 R1
G1 X185.843 Y185.843 E.02425
G1 X119.157 Y119.157 E3.52522
G1 X119.157 Y119.806 E.02425
G1 X185.194 Y185.843 E3.49093
G1 X184.546 Y185.843 E.02425
M73 P66 R1
G1 X119.157 Y120.454 E3.45663
M73 P66 R1
G1 X119.157 Y121.103 E.02425
G1 X183.897 Y185.843 E3.42234
G1 X183.248 Y185.843 E.02425
M73 P67 R1
G1 X119.157 Y121.752 E3.38805
M73 P67 R1
G1 X119.157 Y122.401 E.02425
G1 X182.599 Y185.843 E3.35375
G1 X181.951 Y185.843 E.02425
M73 P68 R1
G1 X119.157 Y123.049 E3.31946
M73 P68 R1
