; HEADER_BLOCK_START
; generated by OrcaSlicer 2.2.0 on 2025-06-04 at 11:46:17
; total layer number: 1
; filament_density: 1.24
; filament_diameter: 1.75
; max_z_height: 0.20
; HEADER_BLOCK_END

; THUMBNAIL_BLOCK_START

;
; THUMBNAIL_BLOCK_END

; THUMBNAIL_BLOCK_START

;
; THUMBNAIL_BLOCK_END

; external perimeters extrusion width = 0.42mm
; perimeters extrusion width = 0.45mm
; infill extrusion width = 0.45mm
; solid infill extrusion width = 0.42mm
; top infill extrusion width = 0.42mm
; first layer extrusion width = 0.50mm

; EXECUTABLE_BLOCK_START
EXCLUDE_OBJECT_DEFINE NAME=Cube_id_0_copy_0 CENTER=162.5,162.5 POLYGON=[[127.5,127.5],[197.5,127.5],[197.5,197.5],[127.5,197.5],[127.5,127.5]]
M73 P0 R8
M106 S0
M106 P2 S0
;TYPE:Custom
PRINT_START
G28
M141 S0
G0 Z50 F600
M190 S60
G28 Z
G29; mesh bed leveling ,comment this code to close it
G0 X0 Y0 Z50 F6000
M73 P51 R4
M191 S0
M109 S210
M106 P3 S255
M83
G4 P3000
G0 X115.929 Y115.929 Z5 F6000
M73 P52 R4
G0 Z0.2 F600
M73 P53 R4
G1 E3 F1800
G1 X200.929 E3.4 F3000
M73 P50 R4
G1 Y117.929 E0.08 F3000
M73 P51 R4
G1 X115.929 E3.4 F3000
M73 P52 R4
G1 Y200.929 E3.32 F3000
M73 P53 R4
G1 X117.929 E0.08 F3000
M73 P54 R4
G1 Y118.929 E3.28 F3000
G1 X127.929 E-0.4 F3000
G1 E0.4 F3000
M73 P54 R3
M106 P3 S255
G90
G21
M83 ; use relative distances for extrusion
SET_PRESSURE_ADVANCE ADVANCE=0.031; Override pressure advance value
M106 S0
M106 P2 S0
;LAYER_CHANGE
;Z:0.2
;HEIGHT:0.2
;BEFORE_LAYER_CHANGE
;0.2
G92 E0

G1 E-1 F1800
;TIMELAPSE_TAKE_FRAME

;_SET_FAN_SPEED_CHANGING_LAYER
SET_VELOCITY_LIMIT ACCEL=500 ACCEL_TO_DECEL=250
G1 X122.846 Y123.238 F15000
M73 P54 R4
G1 Z.6
G1 Z.2
G1 E1 F1800
;TYPE:Skirt
;WIDTH:0.5
M73 P54 R3
G1 F3000
G1 X124.438 Y121.946 E.07635
G1 X127.5 Y121.158 E.11778
G1 X197.5 Y121.158 E2.60723
G1 X199.708 Y121.555 E.08357
G1 X201.64 Y122.695 E.08357
G1 X203.054 Y124.438 E.08357
G1 X203.842 Y127.5 E.11778
G1 X203.842 Y197.5 E2.60723
G1 X203.445 Y199.708 E.08357
M73 P55 R3
G1 X202.305 Y201.64 E.08357
G1 X200.562 Y203.054 E.08357
G1 X197.5 Y203.842 E.11778
G1 X127.5 Y203.842 E2.60723
G1 X125.292 Y203.445 E.08357
M73 P55 R3
G1 X123.36 Y202.305 E.08357
G1 X121.946 Y200.562 E.08357
G1 X121.158 Y197.5 E.11778
G1 X121.158 Y127.5 E2.60723
G1 X121.555 Y125.292 E.08357
G1 X122.695 Y123.36 E.08357
G1 X122.815 Y123.263 E.00572
G1 X123.148 Y123.539 F15000
G1 F3000
G1 X124.871 Y122.235 E.08047
G1 X127.5 Y121.615 E.10062
G1 X197.5 Y121.615 E2.60723
G1 X199.624 Y122.011 E.08047
M73 P56 R3
G1 X201.461 Y123.148 E.08047
G1 X202.765 Y124.871 E.08047
G1 X203.385 Y127.5 E.10062
G1 X203.385 Y197.5 E2.60723
G1 X202.989 Y199.624 E.08047
M73 P56 R3
G1 X201.852 Y201.461 E.08047
G1 X200.129 Y202.765 E.08047
G1 X197.5 Y203.385 E.10062
G1 X127.5 Y203.385 E2.60723
G1 X125.376 Y202.989 E.08047
G1 X123.539 Y201.852 E.08047
G1 X122.235 Y200.129 E.08047
G1 X121.615 Y197.5 E.10062
G1 X121.615 Y127.5 E2.60723
G1 X122.011 Y125.376 E.08047
M73 P57 R3
G1 X123.127 Y123.573 E.07898
G1 X123.529 Y123.834 F15000
G1 F3000
G1 X123.599 Y123.725 E.00483
G1 X125.3 Y122.538 E.07726
M73 P57 R3
G1 X127.5 Y122.072 E.08376
G1 X197.5 Y122.072 E2.60723
G1 X199.536 Y122.468 E.07726
G1 X201.275 Y123.599 E.07726
G1 X202.462 Y125.3 E.07726
G1 X202.928 Y127.5 E.08376
G1 X202.928 Y197.5 E2.60723
G1 X202.532 Y199.536 E.07726
G1 X201.401 Y201.275 E.07726
G1 X199.7 Y202.462 E.07726
G1 X197.5 Y202.928 E.08376
G1 X127.5 Y202.928 E2.60723
G1 X125.464 Y202.532 E.07726
M73 P58 R3
G1 X123.725 Y201.401 E.07726
G1 X122.538 Y199.7 E.07726
G1 X122.072 Y197.5 E.08376
G1 X122.072 Y127.5 E2.60723
G1 X122.468 Y125.464 E.07726
M73 P58 R3
G1 X123.507 Y123.867 E.07094
G1 X123.9 Y124.138 F15000
G1 F3000
G1 X124.05 Y123.921 E.00981
G1 X125.724 Y122.857 E.0739
G1 X127.5 Y122.529 E.06726
G1 X197.5 Y122.529 E2.60723
G1 X199.444 Y122.925 E.0739
G1 X201.079 Y124.05 E.0739
G1 X202.143 Y125.724 E.0739
G1 X202.471 Y127.5 E.06726
G1 X202.471 Y197.5 E2.60723
G1 X202.075 Y199.444 E.0739
G1 X200.95 Y201.079 E.0739
M73 P59 R3
G1 X199.276 Y202.143 E.0739
G1 X197.5 Y202.471 E.06726
G1 X127.5 Y202.471 E2.60723
G1 X125.556 Y202.075 E.0739
G1 X123.921 Y200.95 E.0739
M73 P59 R3
G1 X122.857 Y199.276 E.0739
G1 X122.529 Y197.5 E.06726
G1 X122.529 Y127.5 E2.60723
G1 X122.925 Y125.556 E.0739
G1 X123.878 Y124.171 E.0626
G1 X124.261 Y124.452 F15000
G1 F3000
G1 X124.499 Y124.128 E.01498
G1 X126.142 Y123.195 E.07039
G1 X127.5 Y122.986 E.05116
G1 X197.5 Y122.986 E2.60723
G1 X199.348 Y123.382 E.07039
G1 X200.872 Y124.499 E.07039
G1 X201.805 Y126.142 E.07039
G1 X202.014 Y127.5 E.05116
G1 X202.014 Y197.5 E2.60723
G1 X201.618 Y199.348 E.07039
M73 P60 R3
G1 X200.501 Y200.872 E.07039
G1 X198.858 Y201.805 E.07039
G1 X197.5 Y202.014 E.05116
G1 X127.5 Y202.014 E2.60723
G1 X125.652 Y201.618 E.07039
M73 P60 R3
G1 X124.128 Y200.501 E.07039
G1 X123.195 Y198.858 E.07039
G1 X122.986 Y197.5 E.05116
G1 X122.986 Y127.5 E2.60723
G1 X123.382 Y125.652 E.07039
G1 X124.238 Y124.485 E.05392
G1 X124.608 Y124.777 F15000
G1 F3000
G1 X124.946 Y124.348 E.02036
G1 X126.552 Y123.555 E.06669
G1 X127.5 Y123.443 E.03555
G1 X197.5 Y123.443 E2.60723
G1 X199.246 Y123.838 E.06669
M73 P61 R3
G1 X200.652 Y124.946 E.06669
G1 X201.445 Y126.552 E.06669
G1 X201.557 Y127.5 E.03555
G1 X201.557 Y197.5 E2.60723
G1 X201.162 Y199.246 E.06669
M73 P61 R3
G1 X200.054 Y200.652 E.06669
G1 X198.448 Y201.445 E.06669
G1 X197.5 Y201.557 E.03555
G1 X127.5 Y201.557 E2.60723
G1 X125.754 Y201.162 E.06669
G1 X124.348 Y200.054 E.06669
G1 X123.555 Y198.448 E.06669
G1 X123.443 Y197.5 E.03555
G1 X123.443 Y127.5 E2.60723
G1 X123.838 Y125.754 E.06669
M73 P62 R3
G1 X124.583 Y124.808 E.04484
G1 X124.938 Y125.112 F15000
G1 F3000
G1 X125.392 Y124.582 E.02598
G1 X127.5 Y123.9 E.08254
M73 P62 R3
G1 X197.5 Y123.9 E2.60723
G1 X199.138 Y124.295 E.06277
G1 X200.418 Y125.392 E.06277
G1 X201.1 Y127.5 E.08254
G1 X201.1 Y197.5 E2.60723
G1 X200.705 Y199.138 E.06277
G1 X199.608 Y200.418 E.06277
G1 X197.5 Y201.1 E.08254
G1 X127.5 Y201.1 E2.60723
G1 X125.862 Y200.705 E.06277
G1 X124.582 Y199.608 E.06277
M73 P63 R3
G1 X123.9 Y197.5 E.08254
G1 X123.9 Y127.5 E2.60723
G1 X124.295 Y125.862 E.06277
G1 X124.911 Y125.142 E.0353
G1 X125.244 Y125.457 F15000
M73 P63 R3
G1 F3000
G1 X125.833 Y124.836 E.03191
G1 X127.5 Y124.357 E.06459
G1 X197.5 Y124.357 E2.60723
G1 X199.023 Y124.751 E.05859
G1 X200.164 Y125.833 E.05859
G1 X200.643 Y127.5 E.06459
G1 X200.643 Y197.5 E2.60723
G1 X200.249 Y199.023 E.05859
G1 X199.167 Y200.164 E.05859
G1 X197.5 Y200.643 E.06459
G1 X127.5 Y200.643 E2.60723
G1 X125.977 Y200.249 E.05859
M73 P64 R3
G1 X124.836 Y199.167 E.05859
G1 X124.357 Y197.5 E.06459
G1 X124.357 Y127.5 E2.60723
G1 X124.751 Y125.977 E.05859
G1 X125.216 Y125.486 E.02519
M73 P64 R3
G1 X125.519 Y125.812 F15000
G1 F3000
G1 X126.27 Y125.113 E.03821
G1 X127.5 Y124.814 E.04715
G1 X197.5 Y124.814 E2.60723
G1 X198.898 Y125.207 E.05408
G1 X199.887 Y126.27 E.05408
G1 X200.186 Y127.5 E.04715
G1 X200.186 Y197.5 E2.60723
G1 X199.793 Y198.898 E.05408
M73 P65 R3
G1 X198.73 Y199.887 E.05408
G1 X197.5 Y200.186 E.04715
G1 X127.5 Y200.186 E2.60723
G1 X126.102 Y199.793 E.05408
G1 X125.113 Y198.73 E.05408
M73 P65 R3
G1 X124.814 Y197.5 E.04715
G1 X124.814 Y127.5 E2.60723
G1 X125.207 Y126.102 E.05408
G1 X125.49 Y125.839 E.01439
G1 X125.751 Y126.169 F15000
G1 F3000
G1 X126.698 Y125.421 E.04498
G1 X127.5 Y125.271 E.03037
G1 X197.5 Y125.271 E2.60723
G1 X198.761 Y125.662 E.04917
M73 P66 R2
G1 X199.579 Y126.698 E.04917
G1 X199.729 Y127.5 E.03037
G1 X199.729 Y197.5 E2.60723
G1 X199.338 Y198.761 E.04917
G1 X198.302 Y199.579 E.04917
M73 P66 R2
G1 X197.5 Y199.729 E.03037
G1 X127.5 Y199.729 E2.60723
G1 X126.239 Y199.338 E.04917
G1 X125.421 Y198.302 E.04917
G1 X125.271 Y197.5 E.03037
G1 X125.271 Y127.5 E2.60723
G1 X125.662 Y126.239 E.04917
G1 X125.719 Y126.194 E.0027
G1 E-.4 F1800
;WIPE_START
G1 F3000
G1 X126.504 Y125.574 E-.6
;WIPE_END
EXCLUDE_OBJECT_START NAME=Cube_id_0_copy_0
G1 X131.865 Y131.007 Z.6 F15000
G1 X196.186 Y196.186 Z.6
G1 Z.2
M73 P67 R2
G1 E1 F1800
;TYPE:Inner wall
G1 F3000
G1 X128.814 Y196.186 E2.50934
G1 X128.814 Y128.814 E2.50934
G1 X196.186 Y128.814 E2.50934
M73 P67 R2
G1 X196.186 Y196.126 E2.5071
G1 X196.643 Y196.643 F15000
M73 P68 R2
G1 F3000
G1 X128.357 Y196.643 E2.54339
G1 X128.357 Y128.357 E2.54339
G1 X196.643 Y128.357 E2.54339
G1 X196.643 Y196.583 E2.54115
M73 P69 R2
M73 P68 R2
G1 X197.1 Y197.1 F15000
;TYPE:Outer wall
G1 F3000
G1 X127.9 Y197.1 E2.57744
G1 X127.9 Y127.9 E2.57744
G1 X197.1 Y127.9 E2.57744
M73 P69 R2
G1 X197.1 Y197.04 E2.5752
M73 P70 R2
G1 E-.4 F1800
;WIPE_START
G1 F3000
G1 X196.1 Y197.041 E-.6
;WIPE_END
G1 X196.094 Y189.408 Z.6 F15000
G1 X196.049 Y129.879 Z.6
M73 P70 R2
G1 Z.2
G1 E1 F1800
;TYPE:Bottom surface
;WIDTH:0.501638
G1 F6300
G1 X195.327 Y129.157 E.03815
G1 X194.678 Y129.157 E.02425
G1 X195.843 Y130.322 E.06157
G1 X195.843 Y130.97 E.02425
G1 X194.03 Y129.157 E.09587
G1 X193.381 Y129.157 E.02425
G1 X195.843 Y131.619 E.13016
G1 X195.843 Y132.268 E.02425
G1 X192.732 Y129.157 E.16446
G1 X192.083 Y129.157 E.02425
G1 X195.843 Y132.917 E.19875
G1 X195.843 Y133.565 E.02425
G1 X191.435 Y129.157 E.23304
G1 X190.786 Y129.157 E.02425
G1 X195.843 Y134.214 E.26734
G1 X195.843 Y134.863 E.02425
G1 X190.137 Y129.157 E.30163
G1 X189.488 Y129.157 E.02425
G1 X195.843 Y135.512 E.33592
G1 X195.843 Y136.16 E.02425
G1 X188.84 Y129.157 E.37022
M73 P71 R2
G1 X188.191 Y129.157 E.02425
G1 X195.843 Y136.809 E.40451
G1 X195.843 Y137.458 E.02425
G1 X187.542 Y129.157 E.4388
G1 X186.894 Y129.157 E.02425
M73 P71 R2
G1 X195.843 Y138.106 E.4731
G1 X195.843 Y138.755 E.02425
G1 X186.245 Y129.157 E.50739
G1 X185.596 Y129.157 E.02425
G1 X195.843 Y139.404 E.54168
G1 X195.843 Y140.053 E.02425
G1 X184.947 Y129.157 E.57598
G1 X184.299 Y129.157 E.02425
G1 X195.843 Y140.701 E.61027
G1 X195.843 Y141.35 E.02425
G1 X183.65 Y129.157 E.64456
G1 X183.001 Y129.157 E.02425
G1 X195.843 Y141.999 E.67886
G1 X195.843 Y142.648 E.02425
G1 X182.352 Y129.157 E.71315
G1 X181.704 Y129.157 E.02425
G1 X195.843 Y143.296 E.74744
G1 X195.843 Y143.945 E.02425
G1 X181.055 Y129.157 E.78174
G1 X180.406 Y129.157 E.02425
G1 X195.843 Y144.594 E.81603
G1 X195.843 Y145.242 E.02425
G1 X179.758 Y129.157 E.85033
G1 X179.109 Y129.157 E.02425
M73 P72 R2
G1 X195.843 Y145.891 E.88462
G1 X195.843 Y146.54 E.02425
G1 X178.46 Y129.157 E.91891
G1 X177.811 Y129.157 E.02425
G1 X195.843 Y147.189 E.95321
M73 P72 R2
G1 X195.843 Y147.837 E.02425
G1 X177.163 Y129.157 E.9875
G1 X176.514 Y129.157 E.02425
G1 X195.843 Y148.486 E1.02179
G1 X195.843 Y149.135 E.02425
G1 X175.865 Y129.157 E1.05609
G1 X175.216 Y129.157 E.02425
G1 X195.843 Y149.784 E1.09038
G1 X195.843 Y150.432 E.02425
G1 X174.568 Y129.157 E1.12467
G1 X173.919 Y129.157 E.02425
G1 X195.843 Y151.081 E1.15897
G1 X195.843 Y151.73 E.02425
G1 X173.27 Y129.157 E1.19326
G1 X172.622 Y129.157 E.02425
G1 X195.843 Y152.378 E1.22755
G1 X195.843 Y153.027 E.02425
M73 P73 R2
G1 X171.973 Y129.157 E1.26185
G1 X171.324 Y129.157 E.02425
G1 X195.843 Y153.676 E1.29614
G1 X195.843 Y154.325 E.02425
G1 X170.675 Y129.157 E1.33043
M73 P73 R2
G1 X170.027 Y129.157 E.02425
G1 X195.843 Y154.973 E1.36473
G1 X195.843 Y155.622 E.02425
G1 X169.378 Y129.157 E1.39902
G1 X168.729 Y129.157 E.02425
G1 X195.843 Y156.271 E1.43331
G1 X195.843 Y156.92 E.02425
G1 X168.08 Y129.157 E1.46761
G1 X167.432 Y129.157 E.02425
G1 X195.843 Y157.568 E1.5019
G1 X195.843 Y158.217 E.02425
G1 X166.783 Y129.157 E1.53619
G1 X166.134 Y129.157 E.02425
M73 P74 R2
G1 X195.843 Y158.866 E1.57049
G1 X195.843 Y159.514 E.02425
G1 X165.486 Y129.157 E1.60478
G1 X164.837 Y129.157 E.02425
G1 X195.843 Y160.163 E1.63908
M73 P74 R2
G1 X195.843 Y160.812 E.02425
G1 X164.188 Y129.157 E1.67337
G1 X163.539 Y129.157 E.02425
G1 X195.843 Y161.461 E1.70766
G1 X195.843 Y162.109 E.02425
G1 X162.891 Y129.157 E1.74196
G1 X162.242 Y129.157 E.02425
G1 X195.843 Y162.758 E1.77625
G1 X195.843 Y163.407 E.02425
G1 X161.593 Y129.157 E1.81054
G1 X160.945 Y129.157 E.02425
M73 P75 R2
G1 X195.843 Y164.055 E1.84484
G1 X195.843 Y164.704 E.02425
G1 X160.296 Y129.157 E1.87913
G1 X159.647 Y129.157 E.02425
G1 X195.843 Y165.353 E1.91342
M73 P75 R2
G1 X195.843 Y166.002 E.02425
G1 X158.998 Y129.157 E1.94772
G1 X158.35 Y129.157 E.02425
G1 X195.843 Y166.65 E1.98201
G1 X195.843 Y167.299 E.02425
G1 X157.701 Y129.157 E2.0163
G1 X157.052 Y129.157 E.02425
G1 X195.843 Y167.948 E2.0506
G1 X195.843 Y168.597 E.02425
M73 P76 R2
G1 X156.403 Y129.157 E2.08489
G1 X155.755 Y129.157 E.02425
G1 X195.843 Y169.245 E2.11918
G1 X195.843 Y169.894 E.02425
G1 X155.106 Y129.157 E2.15348
M73 P76 R2
G1 X154.457 Y129.157 E.02425
G1 X195.843 Y170.543 E2.18777
G1 X195.843 Y171.191 E.02425
G1 X153.809 Y129.157 E2.22206
G1 X153.16 Y129.157 E.02425
G1 X195.843 Y171.84 E2.25636
G1 X195.843 Y172.489 E.02425
G1 X152.511 Y129.157 E2.29065
G1 X151.862 Y129.157 E.02425
M73 P77 R2
G1 X195.843 Y173.138 E2.32494
G1 X195.843 Y173.786 E.02425
G1 X151.214 Y129.157 E2.35924
G1 X150.565 Y129.157 E.02425
M73 P77 R1
G1 X195.843 Y174.435 E2.39353
M73 P77 R2
G1 X195.843 Y175.084 E.02425
G1 X149.916 Y129.157 E2.42783
G1 X149.267 Y129.157 E.02425
G1 X195.843 Y175.733 E2.46212
M73 P77 R1
G1 X195.843 Y176.381 E.02425
G1 X148.619 Y129.157 E2.49641
G1 X147.97 Y129.157 E.02425
G1 X195.843 Y177.03 E2.53071
M73 P78 R1
G1 X195.843 Y177.679 E.02425
G1 X147.321 Y129.157 E2.565
G1 X146.673 Y129.157 E.02425
G1 X195.843 Y178.327 E2.59929
G1 X195.843 Y178.976 E.02425
M73 P78 R1
G1 X146.024 Y129.157 E2.63359
G1 X145.375 Y129.157 E.02425
G1 X195.843 Y179.625 E2.66788
G1 X195.843 Y180.274 E.02425
G1 X144.726 Y129.157 E2.70217
G1 X144.078 Y129.157 E.02425
M73 P79 R1
G1 X195.843 Y180.922 E2.73647
G1 X195.843 Y181.571 E.02425
G1 X143.429 Y129.157 E2.77076
G1 X142.78 Y129.157 E.02425
G1 X195.843 Y182.22 E2.80505
M73 P79 R1
G1 X195.843 Y182.869 E.02425
G1 X142.131 Y129.157 E2.83935
G1 X141.483 Y129.157 E.02425
G1 X195.843 Y183.517 E2.87364
G1 X195.843 Y184.166 E.02425
G1 X140.834 Y129.157 E2.90793
G1 X140.185 Y129.157 E.02425
M73 P80 R1
G1 X195.843 Y184.815 E2.94223
G1 X195.843 Y185.463 E.02425
G1 X139.537 Y129.157 E2.97652
G1 X138.888 Y129.157 E.02425
G1 X195.843 Y186.112 E3.01081
M73 P80 R1
G1 X195.843 Y186.761 E.02425
G1 X138.239 Y129.157 E3.04511
G1 X137.59 Y129.157 E.02425
G1 X195.843 Y187.41 E3.0794
G1 X195.843 Y188.058 E.02425
M73 P81 R1
G1 X136.942 Y129.157 E3.1137
G1 X136.293 Y129.157 E.02425
G1 X195.843 Y188.707 E3.14799
G1 X195.843 Y189.356 E.02425
G1 X135.644 Y129.157 E3.18228
M73 P81 R1
G1 X134.996 Y129.157 E.02425
G1 X195.843 Y190.004 E3.21658
G1 X195.843 Y190.653 E.02425
G1 X134.347 Y129.157 E3.25087
G1 X133.698 Y129.157 E.02425
M73 P82 R1
G1 X195.843 Y191.302 E3.28516
G1 X195.843 Y191.951 E.02425
G1 X133.049 Y129.157 E3.31946
G1 X132.401 Y129.157 E.02425
G1 X195.843 Y192.599 E3.35375
M73 P82 R1
G1 X195.843 Y193.248 E.02425
G1 X131.752 Y129.157 E3.38804
G1 X131.103 Y129.157 E.02425
G1 X195.843 Y193.897 E3.42234
G1 X195.843 Y194.546 E.02425
M73 P83 R1
G1 X130.454 Y129.157 E3.45663
G1 X129.806 Y129.157 E.02425
G1 X195.843 Y195.194 E3.49092
G1 X195.843 Y195.843 E.02425
G1 X129.157 Y129.157 E3.52522
M73 P83 R1
G1 X129.157 Y129.806 E.02425
G1 X195.194 Y195.843 E3.49093
G1 X194.546 Y195.843 E.02425
G1 X129.157 Y130.454 E3.45663
G1 X129.157 Y131.103 E.02425
M73 P84 R1
G1 X193.897 Y195.843 E3.42234
G1 X193.248 Y195.843 E.02425
G1 X129.157 Y131.752 E3.38805
G1 X129.157 Y132.401 E.02425
G1 X192.599 Y195.843 E3.35375
M73 P84 R1
G1 X191.951 Y195.843 E.02425
G1 X129.157 Y133.049 E3.31946
G1 X129.157 Y133.698 E.02425
G1 X191.302 Y195.843 E3.28516
G1 X190.653 Y195.843 E.02425
M73 P85 R1
G1 X129.157 Y134.347 E3.25087
G1 X129.157 Y134.995 E.02425
G1 X190.005 Y195.843 E3.21658
G1 X189.356 Y195.843 E.02425
G1 X129.157 Y135.644 E3.18228
M73 P85 R1
G1 X129.157 Y136.293 E.02425
G1 X188.707 Y195.843 E3.14799
G1 X188.058 Y195.843 E.02425
G1 X129.157 Y136.942 E3.1137
G1 X129.157 Y137.59 E.02425
M73 P86 R1
G1 X187.41 Y195.843 E3.0794
G1 X186.761 Y195.843 E.02425
G1 X129.157 Y138.239 E3.04511
G1 X129.157 Y138.888 E.02425
G1 X186.112 Y195.843 E3.01082
M73 P86 R1
G1 X185.463 Y195.843 E.02425
G1 X129.157 Y139.537 E2.97652
G1 X129.157 Y140.185 E.02425
G1 X184.815 Y195.843 E2.94223
