; HEADER_BLOCK_START
; generated by OrcaSlicer 2.2.0 on 2025-06-04 at 11:47:33
; total layer number: 1
; filament_density: 1.24
; filament_diameter: 1.75
; max_z_height: 0.20
; HEADER_BLOCK_END

; THUMBNAIL_BLOCK_START

;
; THUMBNAIL_BLOCK_END

; THUMBNAIL_BLOCK_START

;
; THUMBNAIL_BLOCK_END

; external perimeters extrusion width = 0.42mm
; perimeters extrusion width = 0.45mm
; infill extrusion width = 0.45mm
; solid infill extrusion width = 0.42mm
; top infill extrusion width = 0.42mm
; first layer extrusion width = 0.50mm

; EXECUTABLE_BLOCK_START
EXCLUDE_OBJECT_DEFINE NAME=Cube_id_0_copy_0 CENTER=122.5,122.5 POLYGON=[[87.5,87.5],[157.5,87.5],[157.5,157.5],[87.5,157.5],[87.5,87.5]]
M73 P0 R4
M106 S0
M106 P2 S0
;TYPE:Custom
PRINT_START BED=60 HOTEND=210 CHAMBER=0
M83
M140 S60
M104 S210
G4 P3000
G0 X75.9292 Y75.9292 Z5 F6000
G0 Z0.2 F600
G1 E3 F1800
G1 X160.929 E3.4 F3000
G1 Y77.9292 E0.08 F3000
M73 P1 R4
G1 X75.9292 E3.4 F3000
M73 P1 R4
G1 Y160.929 E3.32 F3000
M73 P2 R4
G1 X77.9292 E0.08 F3000
M73 P2 R3
M73 P2 R4
G1 Y78.9292 E3.28 F3000
M73 P2 R3
G1 X78.9292 Z0
M73 P3 R3
G1 X81.9292
M73 P3 R3
G1 Z1 F600
M106 P3 S255
G90
G21
M83 ; use relative distances for extrusion
SET_PRESSURE_ADVANCE ADVANCE=0.042; Override pressure advance value
M106 S0
M106 P2 S0
;LAYER_CHANGE
;Z:0.2
;HEIGHT:0.2
;BEFORE_LAYER_CHANGE
;0.2
G92 E0

G1 E-.8 F1800
;TIMELAPSE_TAKE_FRAME

;BEFORE_LAYER_CHANGE
;0.2
LOG_Z
G92 E0

;_SET_FAN_SPEED_CHANGING_LAYER
SET_VELOCITY_LIMIT ACCEL=500 ACCEL_TO_DECEL=250
G1 X82.846 Y83.238 F15000
G1 Z.6
G1 Z.2
G1 E.8 F1800
;TYPE:Skirt
;WIDTH:0.5
G1 F3000
G1 X84.438 Y81.946 E.07635
G1 X87.5 Y81.158 E.11778
G1 X157.5 Y81.158 E2.60723
G1 X159.708 Y81.555 E.08357
M73 P4 R3
G1 X161.64 Y82.695 E.08357
M73 P4 R3
G1 X163.054 Y84.438 E.08357
G1 X163.842 Y87.5 E.11778
G1 X163.842 Y157.5 E2.60723
G1 X163.445 Y159.708 E.08357
M73 P5 R3
G1 X162.305 Y161.64 E.08357
M73 P5 R3
G1 X160.562 Y163.054 E.08357
G1 X157.5 Y163.842 E.11778
G1 X87.5 Y163.842 E2.60723
G1 X85.292 Y163.445 E.08357
G1 X83.36 Y162.305 E.08357
G1 X81.946 Y160.562 E.08357
G1 X81.158 Y157.5 E.11778
G1 X81.158 Y87.5 E2.60723
G1 X81.555 Y85.292 E.08357
M73 P6 R3
G1 X82.695 Y83.36 E.08357
M73 P6 R3
G1 X82.815 Y83.263 E.00572
G1 X83.148 Y83.539 F15000
G1 F3000
G1 X84.871 Y82.235 E.08047
G1 X87.5 Y81.615 E.10062
G1 X157.5 Y81.615 E2.60723
G1 X159.624 Y82.011 E.08047
M73 P7 R3
G1 X161.461 Y83.148 E.08047
M73 P7 R3
G1 X162.765 Y84.871 E.08047
G1 X163.385 Y87.5 E.10062
G1 X163.385 Y157.5 E2.60723
G1 X162.989 Y159.624 E.08047
G1 X161.852 Y161.461 E.08047
G1 X160.129 Y162.765 E.08047
G1 X157.5 Y163.385 E.10062
G1 X87.5 Y163.385 E2.60723
G1 X85.376 Y162.989 E.08047
M73 P8 R3
G1 X83.539 Y161.852 E.08047
M73 P8 R3
G1 X82.235 Y160.129 E.08047
G1 X81.615 Y157.5 E.10062
G1 X81.615 Y87.5 E2.60723
G1 X82.011 Y85.376 E.08047
M73 P9 R3
G1 X83.127 Y83.573 E.07898
M73 P9 R3
G1 X83.529 Y83.834 F15000
G1 F3000
G1 X83.599 Y83.725 E.00483
G1 X85.3 Y82.538 E.07726
G1 X87.5 Y82.072 E.08376
G1 X157.5 Y82.072 E2.60723
G1 X159.536 Y82.468 E.07726
G1 X161.275 Y83.599 E.07726
G1 X162.462 Y85.3 E.07726
G1 X162.928 Y87.5 E.08376
G1 X162.928 Y157.5 E2.60723
G1 X162.532 Y159.536 E.07726
M73 P10 R3
G1 X161.401 Y161.275 E.07726
M73 P10 R3
G1 X159.7 Y162.462 E.07726
G1 X157.5 Y162.928 E.08376
G1 X87.5 Y162.928 E2.60723
G1 X85.464 Y162.532 E.07726
M73 P11 R3
G1 X83.725 Y161.401 E.07726
M73 P11 R3
G1 X82.538 Y159.7 E.07726
G1 X82.072 Y157.5 E.08376
G1 X82.072 Y87.5 E2.60723
G1 X82.468 Y85.464 E.07726
G1 X83.507 Y83.867 E.07094
G1 X83.9 Y84.138 F15000
G1 F3000
G1 X84.05 Y83.921 E.00981
G1 X85.724 Y82.857 E.0739
G1 X87.5 Y82.529 E.06726
G1 X157.5 Y82.529 E2.60723
G1 X159.444 Y82.925 E.0739
M73 P12 R3
G1 X161.079 Y84.05 E.0739
M73 P12 R3
G1 X162.143 Y85.724 E.0739
G1 X162.471 Y87.5 E.06726
G1 X162.471 Y157.5 E2.60723
G1 X162.075 Y159.444 E.0739
M73 P13 R3
G1 X160.95 Y161.079 E.0739
M73 P13 R3
G1 X159.276 Y162.143 E.0739
G1 X157.5 Y162.471 E.06726
G1 X87.5 Y162.471 E2.60723
G1 X85.556 Y162.075 E.0739
G1 X83.921 Y160.95 E.0739
G1 X82.857 Y159.276 E.0739
G1 X82.529 Y157.5 E.06726
G1 X82.529 Y87.5 E2.60723
G1 X82.925 Y85.556 E.0739
M73 P14 R3
G1 X83.878 Y84.171 E.0626
M73 P14 R3
G1 X84.261 Y84.452 F15000
G1 F3000
G1 X84.499 Y84.128 E.01498
G1 X86.142 Y83.195 E.07039
G1 X87.5 Y82.986 E.05116
G1 X157.5 Y82.986 E2.60723
G1 X159.348 Y83.382 E.07039
M73 P15 R3
G1 X160.872 Y84.499 E.07039
M73 P15 R3
G1 X161.805 Y86.142 E.07039
G1 X162.014 Y87.5 E.05116
G1 X162.014 Y157.5 E2.60723
G1 X161.618 Y159.348 E.07039
G1 X160.501 Y160.872 E.07039
G1 X158.858 Y161.805 E.07039
G1 X157.5 Y162.014 E.05116
G1 X87.5 Y162.014 E2.60723
G1 X85.652 Y161.618 E.07039
M73 P16 R3
G1 X84.128 Y160.501 E.07039
M73 P16 R3
G1 X83.195 Y158.858 E.07039
G1 X82.986 Y157.5 E.05116
G1 X82.986 Y87.5 E2.60723
G1 X83.382 Y85.652 E.07039
M73 P17 R3
G1 X84.238 Y84.485 E.05392
M73 P17 R3
G1 X84.608 Y84.777 F15000
G1 F3000
G1 X84.946 Y84.348 E.02036
G1 X86.552 Y83.555 E.06669
G1 X87.5 Y83.443 E.03555
G1 X157.5 Y83.443 E2.60723
G1 X159.246 Y83.838 E.06669
G1 X160.652 Y84.946 E.06669
G1 X161.445 Y86.552 E.06669
G1 X161.557 Y87.5 E.03555
G1 X161.557 Y157.5 E2.60723
G1 X161.162 Y159.246 E.06669
M73 P18 R3
G1 X160.054 Y160.652 E.06669
M73 P18 R3
G1 X158.448 Y161.445 E.06669
G1 X157.5 Y161.557 E.03555
G1 X87.5 Y161.557 E2.60723
G1 X85.754 Y161.162 E.06669
M73 P19 R3
G1 X84.348 Y160.054 E.06669
M73 P19 R3
G1 X83.555 Y158.448 E.06669
G1 X83.443 Y157.5 E.03555
G1 X83.443 Y87.5 E2.60723
G1 X83.838 Y85.754 E.06669
G1 X84.583 Y84.808 E.04484
G1 X84.938 Y85.112 F15000
G1 F3000
G1 X85.392 Y84.582 E.02598
G1 X87.5 Y83.9 E.08254
G1 X157.5 Y83.9 E2.60723
G1 X159.138 Y84.295 E.06277
M73 P20 R3
G1 X160.418 Y85.392 E.06277
M73 P20 R3
G1 X161.1 Y87.5 E.08254
G1 X161.1 Y157.5 E2.60723
G1 X160.705 Y159.138 E.06277
M73 P21 R3
G1 X159.608 Y160.418 E.06277
M73 P21 R3
G1 X157.5 Y161.1 E.08254
G1 X87.5 Y161.1 E2.60723
G1 X85.862 Y160.705 E.06277
G1 X84.582 Y159.608 E.06277
G1 X83.9 Y157.5 E.08254
G1 X83.9 Y87.5 E2.60723
G1 X84.295 Y85.862 E.06277
M73 P22 R3
G1 X84.911 Y85.142 E.0353
M73 P22 R3
G1 X85.244 Y85.457 F15000
G1 F3000
G1 X85.833 Y84.836 E.03191
G1 X87.5 Y84.357 E.06459
G1 X157.5 Y84.357 E2.60723
G1 X159.023 Y84.751 E.05859
M73 P23 R3
G1 X160.164 Y85.833 E.05859
M73 P23 R3
G1 X160.643 Y87.5 E.06459
G1 X160.643 Y157.5 E2.60723
G1 X160.249 Y159.023 E.05859
G1 X159.167 Y160.164 E.05859
G1 X157.5 Y160.643 E.06459
G1 X87.5 Y160.643 E2.60723
G1 X85.977 Y160.249 E.05859
M73 P24 R3
G1 X84.836 Y159.167 E.05859
M73 P24 R3
G1 X84.357 Y157.5 E.06459
G1 X84.357 Y87.5 E2.60723
G1 X84.751 Y85.977 E.05859
M73 P25 R3
G1 X85.216 Y85.486 E.02519
M73 P25 R3
G1 X85.519 Y85.812 F15000
G1 F3000
G1 X86.27 Y85.113 E.03821
G1 X87.5 Y84.814 E.04715
G1 X157.5 Y84.814 E2.60723
G1 X158.898 Y85.207 E.05408
G1 X159.887 Y86.27 E.05408
G1 X160.186 Y87.5 E.04715
G1 X160.186 Y157.5 E2.60723
G1 X159.793 Y158.898 E.05408
M73 P26 R3
G1 X158.73 Y159.887 E.05408
M73 P26 R3
G1 X157.5 Y160.186 E.04715
G1 X87.5 Y160.186 E2.60723
G1 X86.102 Y159.793 E.05408
M73 P27 R3
G1 X85.113 Y158.73 E.05408
M73 P27 R3
G1 X84.814 Y157.5 E.04715
M73 P27 R2
G1 X84.814 Y87.5 E2.60723
M73 P27 R2
G1 X85.207 Y86.102 E.05408
G1 X85.49 Y85.839 E.01439
G1 X85.751 Y86.169 F15000
G1 F3000
G1 X86.698 Y85.421 E.04498
G1 X87.5 Y85.271 E.03037
G1 X157.5 Y85.271 E2.60723
G1 X158.761 Y85.662 E.04917
M73 P28 R2
G1 X159.579 Y86.698 E.04917
M73 P28 R2
G1 X159.729 Y87.5 E.03037
G1 X159.729 Y157.5 E2.60723
G1 X159.338 Y158.761 E.04917
M73 P29 R2
G1 X158.302 Y159.579 E.04917
M73 P29 R2
G1 X157.5 Y159.729 E.03037
G1 X87.5 Y159.729 E2.60723
G1 X86.239 Y159.338 E.04917
G1 X85.421 Y158.302 E.04917
G1 X85.271 Y157.5 E.03037
G1 X85.271 Y87.5 E2.60723
G1 X85.662 Y86.239 E.04917
M73 P30 R2
G1 X85.719 Y86.194 E.0027
;WIPE_START
M73 P30 R2
G1 X86.698 Y85.421 E-.49904
G1 X87.438 Y85.283 E-.30096
;WIPE_END
EXCLUDE_OBJECT_START NAME=Cube_id_0_copy_0
G1 X92.751 Y90.763 Z.6 F15000
G1 X156.186 Y156.186 Z.6
G1 Z.2
G1 E.8 F1800
;TYPE:Inner wall
G1 F3000
G1 X88.814 Y156.186 E2.50934
G1 X88.814 Y88.814 E2.50934
M73 P31 R2
G1 X156.186 Y88.814 E2.50934
M73 P31 R2
G1 X156.186 Y156.126 E2.5071
M73 P32 R2
G1 X156.643 Y156.643 F15000
M73 P33 R2
M73 P32 R2
G1 F3000
M73 P33 R2
G1 X88.357 Y156.643 E2.54339
G1 X88.357 Y88.357 E2.54339
G1 X156.643 Y88.357 E2.54339
M73 P34 R2
G1 X156.643 Y156.583 E2.54115
M73 P34 R2
G1 X157.1 Y157.1 F15000
M73 P35 R2
;TYPE:Outer wall
G1 F3000
M73 P35 R2
G1 X87.9 Y157.1 E2.57744
G1 X87.9 Y87.9 E2.57744
M73 P36 R2
G1 X157.1 Y87.9 E2.57744
M73 P36 R2
G1 X157.1 Y157.04 E2.5752
M73 P37 R2
;WIPE_START
G1 X155.1 Y157.042 E-.8
;WIPE_END
M73 P37 R2
G1 X155.208 Y149.41 Z.6 F15000
G1 X156.049 Y89.879 Z.6
G1 Z.2
M73 P38 R2
G1 E.8 F1800
;TYPE:Bottom surface
;WIDTH:0.501638
M73 P38 R2
G1 F6300
G1 X155.327 Y89.157 E.03815
G1 X154.678 Y89.157 E.02425
G1 X155.843 Y90.322 E.06157
G1 X155.843 Y90.97 E.02425
G1 X154.03 Y89.157 E.09587
G1 X153.381 Y89.157 E.02425
G1 X155.843 Y91.619 E.13016
G1 X155.843 Y92.268 E.02425
G1 X152.732 Y89.157 E.16446
G1 X152.083 Y89.157 E.02425
G1 X155.843 Y92.917 E.19875
G1 X155.843 Y93.565 E.02425
G1 X151.435 Y89.157 E.23304
G1 X150.786 Y89.157 E.02425
G1 X155.843 Y94.214 E.26734
G1 X155.843 Y94.863 E.02425
G1 X150.137 Y89.157 E.30163
G1 X149.488 Y89.157 E.02425
G1 X155.843 Y95.512 E.33592
M73 P39 R2
G1 X155.843 Y96.16 E.02425
M73 P39 R2
G1 X148.84 Y89.157 E.37022
G1 X148.191 Y89.157 E.02425
G1 X155.843 Y96.809 E.40451
G1 X155.843 Y97.458 E.02425
G1 X147.542 Y89.157 E.4388
G1 X146.894 Y89.157 E.02425
G1 X155.843 Y98.106 E.4731
G1 X155.843 Y98.755 E.02425
G1 X146.245 Y89.157 E.50739
G1 X145.596 Y89.157 E.02425
G1 X155.843 Y99.404 E.54168
G1 X155.843 Y100.053 E.02425
G1 X144.947 Y89.157 E.57598
G1 X144.299 Y89.157 E.02425
M73 P40 R2
G1 X155.843 Y100.701 E.61027
M73 P40 R2
G1 X155.843 Y101.35 E.02425
G1 X143.65 Y89.157 E.64456
G1 X143.001 Y89.157 E.02425
G1 X155.843 Y101.999 E.67886
G1 X155.843 Y102.648 E.02425
G1 X142.352 Y89.157 E.71315
G1 X141.704 Y89.157 E.02425
G1 X155.843 Y103.296 E.74744
G1 X155.843 Y103.945 E.02425
G1 X141.055 Y89.157 E.78174
G1 X140.406 Y89.157 E.02425
M73 P41 R2
G1 X155.843 Y104.594 E.81603
M73 P41 R2
G1 X155.843 Y105.242 E.02425
G1 X139.758 Y89.157 E.85033
G1 X139.109 Y89.157 E.02425
G1 X155.843 Y105.891 E.88462
G1 X155.843 Y106.54 E.02425
G1 X138.46 Y89.157 E.91891
G1 X137.811 Y89.157 E.02425
G1 X155.843 Y107.189 E.95321
G1 X155.843 Y107.837 E.02425
G1 X137.163 Y89.157 E.9875
G1 X136.514 Y89.157 E.02425
M73 P42 R2
G1 X155.843 Y108.486 E1.02179
M73 P42 R2
G1 X155.843 Y109.135 E.02425
G1 X135.865 Y89.157 E1.05609
G1 X135.216 Y89.157 E.02425
G1 X155.843 Y109.784 E1.09038
G1 X155.843 Y110.432 E.02425
G1 X134.568 Y89.157 E1.12467
G1 X133.919 Y89.157 E.02425
G1 X155.843 Y111.081 E1.15897
G1 X155.843 Y111.73 E.02425
M73 P43 R2
G1 X133.27 Y89.157 E1.19326
M73 P43 R2
G1 X132.622 Y89.157 E.02425
G1 X155.843 Y112.378 E1.22755
G1 X155.843 Y113.027 E.02425
G1 X131.973 Y89.157 E1.26185
G1 X131.324 Y89.157 E.02425
G1 X155.843 Y113.676 E1.29614
G1 X155.843 Y114.325 E.02425
M73 P44 R2
G1 X130.675 Y89.157 E1.33043
M73 P44 R2
G1 X130.027 Y89.157 E.02425
G1 X155.843 Y114.973 E1.36473
G1 X155.843 Y115.622 E.02425
G1 X129.378 Y89.157 E1.39902
G1 X128.729 Y89.157 E.02425
G1 X155.843 Y116.271 E1.43331
G1 X155.843 Y116.92 E.02425
M73 P45 R2
G1 X128.08 Y89.157 E1.46761
M73 P45 R2
G1 X127.432 Y89.157 E.02425
G1 X155.843 Y117.568 E1.5019
G1 X155.843 Y118.217 E.02425
G1 X126.783 Y89.157 E1.53619
G1 X126.134 Y89.157 E.02425
G1 X155.843 Y118.866 E1.57049
G1 X155.843 Y119.514 E.02425
M73 P46 R2
G1 X125.486 Y89.157 E1.60478
M73 P46 R2
G1 X124.837 Y89.157 E.02425
G1 X155.843 Y120.163 E1.63908
G1 X155.843 Y120.812 E.02425
G1 X124.188 Y89.157 E1.67337
G1 X123.539 Y89.157 E.02425
G1 X155.843 Y121.461 E1.70766
G1 X155.843 Y122.109 E.02425
M73 P47 R2
G1 X122.891 Y89.157 E1.74196
M73 P47 R2
G1 X122.242 Y89.157 E.02425
G1 X155.843 Y122.758 E1.77625
G1 X155.843 Y123.407 E.02425
G1 X121.593 Y89.157 E1.81054
G1 X120.945 Y89.157 E.02425
G1 X155.843 Y124.055 E1.84484
G1 X155.843 Y124.704 E.02425
M73 P48 R2
G1 X120.296 Y89.157 E1.87913
M73 P48 R2
G1 X119.647 Y89.157 E.02425
G1 X155.843 Y125.353 E1.91342
G1 X155.843 Y126.002 E.02425
G1 X118.998 Y89.157 E1.94772
G1 X118.35 Y89.157 E.02425
M73 P49 R2
G1 X155.843 Y126.65 E1.98201
M73 P49 R2
G1 X155.843 Y127.299 E.02425
G1 X117.701 Y89.157 E2.0163
G1 X117.052 Y89.157 E.02425
G1 X155.843 Y127.948 E2.0506
G1 X155.843 Y128.597 E.02425
G1 X116.403 Y89.157 E2.08489
G1 X115.755 Y89.157 E.02425
M73 P50 R2
G1 X155.843 Y129.245 E2.11918
M73 P50 R2
G1 X155.843 Y129.894 E.02425
G1 X115.106 Y89.157 E2.15348
G1 X114.457 Y89.157 E.02425
G1 X155.843 Y130.543 E2.18777
G1 X155.843 Y131.191 E.02425
M73 P51 R2
G1 X113.809 Y89.157 E2.22206
M73 P51 R2
G1 X113.16 Y89.157 E.02425
M73 P51 R1
G1 X155.843 Y131.84 E2.25636
M73 P51 R1
G1 X155.843 Y132.489 E.02425
G1 X112.511 Y89.157 E2.29065
G1 X111.862 Y89.157 E.02425
M73 P52 R1
G1 X155.843 Y133.138 E2.32494
M73 P52 R1
G1 X155.843 Y133.786 E.02425
G1 X111.214 Y89.157 E2.35924
G1 X110.565 Y89.157 E.02425
G1 X155.843 Y134.435 E2.39353
G1 X155.843 Y135.084 E.02425
M73 P53 R1
G1 X109.916 Y89.157 E2.42783
M73 P53 R1
G1 X109.267 Y89.157 E.02425
G1 X155.843 Y135.733 E2.46212
G1 X155.843 Y136.381 E.02425
G1 X108.619 Y89.157 E2.49641
G1 X107.97 Y89.157 E.02425
M73 P54 R1
G1 X155.843 Y137.03 E2.53071
M73 P54 R1
G1 X155.843 Y137.679 E.02425
G1 X107.321 Y89.157 E2.565
G1 X106.673 Y89.157 E.02425
G1 X155.843 Y138.327 E2.59929
G1 X155.843 Y138.976 E.02425
M73 P55 R1
G1 X106.024 Y89.157 E2.63359
M73 P55 R1
G1 X105.375 Y89.157 E.02425
G1 X155.843 Y139.625 E2.66788
G1 X155.843 Y140.274 E.02425
M73 P56 R1
G1 X104.726 Y89.157 E2.70217
M73 P56 R1
G1 X104.078 Y89.157 E.02425
G1 X155.843 Y140.922 E2.73647
G1 X155.843 Y141.571 E.02425
G1 X103.429 Y89.157 E2.77076
G1 X102.78 Y89.157 E.02425
M73 P57 R1
G1 X155.843 Y142.22 E2.80505
M73 P57 R1
G1 X155.843 Y142.869 E.02425
G1 X102.131 Y89.157 E2.83935
G1 X101.483 Y89.157 E.02425
G1 X155.843 Y143.517 E2.87364
G1 X155.843 Y144.166 E.02425
M73 P58 R1
G1 X100.834 Y89.157 E2.90793
M73 P58 R1
G1 X100.185 Y89.157 E.02425
G1 X155.843 Y144.815 E2.94223
G1 X155.843 Y145.463 E.02425
M73 P59 R1
G1 X99.537 Y89.157 E2.97652
M73 P59 R1
G1 X98.888 Y89.157 E.02425
G1 X155.843 Y146.112 E3.01081
G1 X155.843 Y146.761 E.02425
G1 X98.239 Y89.157 E3.04511
G1 X97.59 Y89.157 E.02425
M73 P60 R1
G1 X155.843 Y147.41 E3.0794
M73 P60 R1
G1 X155.843 Y148.058 E.02425
G1 X96.942 Y89.157 E3.1137
G1 X96.293 Y89.157 E.02425
M73 P61 R1
G1 X155.843 Y148.707 E3.14799
M73 P61 R1
G1 X155.843 Y149.356 E.02425
G1 X95.644 Y89.157 E3.18228
G1 X94.996 Y89.157 E.02425
G1 X155.843 Y150.004 E3.21658
M73 P62 R1
G1 X155.843 Y150.653 E.02425
M73 P62 R1
G1 X94.347 Y89.157 E3.25087
G1 X93.698 Y89.157 E.02425
G1 X155.843 Y151.302 E3.28516
G1 X155.843 Y151.951 E.02425
M73 P63 R1
G1 X93.049 Y89.157 E3.31946
M73 P63 R1
G1 X92.401 Y89.157 E.02425
G1 X155.843 Y152.599 E3.35375
G1 X155.843 Y153.248 E.02425
M73 P64 R1
G1 X91.752 Y89.157 E3.38804
M73 P64 R1
G1 X91.103 Y89.157 E.02425
G1 X155.843 Y153.897 E3.42234
G1 X155.843 Y154.546 E.02425
M73 P65 R1
G1 X90.454 Y89.157 E3.45663
M73 P65 R1
G1 X89.806 Y89.157 E.02425
G1 X155.843 Y155.194 E3.49092
G1 X155.843 Y155.843 E.02425
G1 X89.157 Y89.157 E3.52522
G1 X89.157 Y89.806 E.02425
M73 P66 R1
G1 X155.194 Y155.843 E3.49093
M73 P66 R1
G1 X154.546 Y155.843 E.02425
G1 X89.157 Y90.454 E3.45663
G1 X89.157 Y91.103 E.02425
M73 P67 R1
G1 X153.897 Y155.843 E3.42234
M73 P67 R1
G1 X153.248 Y155.843 E.02425
G1 X89.157 Y91.752 E3.38805
G1 X89.157 Y92.401 E.02425
M73 P68 R1
G1 X152.599 Y155.843 E3.35375
M73 P68 R1
G1 X151.951 Y155.843 E.02425
G1 X89.157 Y93.049 E3.31946
G1 X89.157 Y93.698 E.02425
M73 P69 R1
G1 X151.302 Y155.843 E3.28516
M73 P69 R1
G1 X150.653 Y155.843 E.02425
G1 X89.157 Y94.347 E3.25087
G1 X89.157 Y94.995 E.02425
G1 X150.005 Y155.843 E3.21658
G1 X149.356 Y155.843 E.02425
M73 P70 R1
G1 X89.157 Y95.644 E3.18228
M73 P70 R1
G1 X89.157 Y96.293 E.02425
G1 X148.707 Y155.843 E3.14799
G1 X148.058 Y155.843 E.02425
M73 P71 R1
G1 X89.157 Y96.942 E3.1137
M73 P71 R1
